!!!!SEGMENT: pl-sa--289-a-vii-49_lechleitner-ferdinand-simon--diffusa-est-gratia.krn
!!!cenid: 17xx:444
!!!COM: Lechleitner, Ferdinand Simon
!!!COM-rism: pe30001903
!!!CDT: ~1700-~1800
!!!CNT:
!!!OTL: Diffusa est gratia
!!!PDT: 1741
!!!AGN:
!!!SMS-siglum: PL-SA
!!!SMS-shelfmark: 289/A VII 49
!!!NIFC-rismID: 1001039782
!!!URL-scan: http://bc.bdsandomierz.pl/dlibra/publication/1782/edition/1750/content
!!!ONB-nifc:
**kern	**fb	**kern	**dynam	**kern	**dynam	**kern	**dynam	**kern	**text	**kern	**text	**kern	**text	**kern	**text	**kern	**kern
*part10	*	*part9	*part9	*part8	*part8	*part7	*part7	*part6	*part6	*part5	*part5	*part4	*part4	*part3	*part3	*part2	*part1
*group3	*	*group3	*group3	*group3	*group3	*group3	*group3	*group2	*group2	*group2	*group2	*group2	*group2	*group2	*group2	*group1	*group1
*staff10	*	*staff9	*	*staff8	*	*staff7	*	*staff6	*staff6	*staff5	*staff5	*staff4	*staff4	*staff3	*staff3	*staff2	*staff1
*I"Bafso viola	*	*I"Alto Viola Neceſsaria	*	*I"Violino 2do	*	*I"Violino 1mo	*	*I"Baſso	*	*I"Tenore	*	*I"Alto	*	*I"Canto	*	*I"Lituo 2'do	*I"Lituo 1mo Ex G.
*I'BV	*	*I'Vla	*	*I'Vno II	*	*I'Vno I	*	*I'B	*	*I'T	*	*I'A	*	*I'C	*	*I'Lit II	*I'Lit I
*clefF4	*	*clefC3	*	*clefG2	*	*clefG2	*	*clefF4	*	*clefC4	*	*clefC3	*	*clefC1	*	*clefG2	*clefG2
*	*	*	*	*	*	*	*	*	*	*	*	*	*	*	*	*ITrd-4c-7	*ITrd-4c-7
*k[f#]	*	*k[f#]	*	*k[f#]	*	*k[f#]	*	*k[f#]	*	*k[f#]	*	*k[f#]	*	*k[f#]	*	*k[f#]	*k[f#]
*G:	*	*G:	*	*G:	*	*G:	*	*G:	*	*G:	*	*G:	*	*G:	*	*	*
*M2/4	*	*M2/4	*	*M2/4	*	*M2/4	*	*M2/4	*	*M2/4	*	*M2/4	*	*M2/4	*	*M2/4	*M2/4
!LO:TX:b:i:t=Diffusa eſt gratia.	!	!LO:TX:b:i:t=Diffusa eſt gratia	!	!LO:TX:a:i:t=Allegro	!	!LO:TX:a:i:t=Allegro	!	!LO:TX:b:i:t=Diffusa eſt	!	!LO:TX:b:i:t=Diffusa eſt	!	!	!	!	!	!LO:TX:b:i:t=Diffusa eſt gratia	!LO:TX:b:i:t=Diffusa eſt gratia
!LO:TX:a:i:t=Allegro	!	!LO:TX:a:i:t=Allegro	!	!LO:TX:b:i:t=Diffusa eſt.	!	!LO:TX:b:i:t=Diffusa eſt	!	!LO:TX:a:i:t=Allegro	!	!LO:TX:a:i:t=All(egr)o	!	!LO:TX:a:i:t=allegro	!	!	!	!LO:TX:a:i:t=all(egr)o	!LO:TX:a:i:t=all(egr)o
!	!	!LO:TX:a:t=P:problem:w źródle krzyżyki przykluczowe f# i F#, zapisane jeden pod drugim	!	!	!	!	!	!	!	!	!	!	!	!	!	!	!
!LO:TX:a:t=P:problem:w źródle krzyżyki przykluczowe F# i FF#, zapisane jeden pod drugim	!	!	!	!	!	!	!	!	!	!	!	!	!	!	!	!	!
!	!	!	!	!LO:TX:a:t=P:problem:w źródle krzyżyki przykluczowe ff# i f#, zapisane jeden pod drugim	!	!	!	!	!	!	!	!	!	!	!	!	!
!	!	!	!	!	!	!LO:TX:a:t=P:problem:w źródle krzyżyki przykluczowe ff# i f#, zapisane jeden pod drugim	!	!	!	!	!	!	!	!	!	!	!
8r	.	8r	.	8r	.	8gg\	.	8r	.	8r	.	8r	.	8r	.	8r	8r
=1	=1	=1	=1	=1	=1	=1	=1	=1	=1	=1	=1	=1	=1	=1	=1	=1	=1
*	*above	*	*	*	*	*	*	*	*	*	*	*	*	*	*	*	*
!LO:TX:a:i:t=Solo.	!	!	!	!	!	!LO:TX:a:i:t=Solo	!	!	!	!	!	!	!	!	!	!	!
!	!	!	!	!	!	!	!	!LO:N:vis=00	!	!LO:N:vis=00	!	!	!	!	!	!	!
!	!	!	!	!	!	!	!	!	!	!	!	!LO:N:vis=00	!	!	!	!	!
!	!	!	!	!	!	!	!	!	!	!	!	!	!	!LO:N:vis=00	!	!LO:N:vis=00	!LO:N:vis=00
4G\	.	4g\	.	4b/	.	8gg\L	.	0r	.	0r	.	0r	.	0r	.	0r	0r
.	.	.	.	.	.	8dd\J	.	.	.	.	.	.	.	.	.	.	.
!LO:TX:a:t=P:problem:mixed beam	!	!	!	!LO:TX:a:i:t=Solo	!	!	!	!	!	!	!	!	!	!	!	!	!
!	!	!LO:TX:a:i:t=Solo	!	!	!	!	!	!	!	!	!	!	!	!	!	!	!
8G\L	.	8g\L	.	8b/L	.	8dd\L	.	.	.	.	.	.	.	.	.	.	.
8C/J	.	8d\J	.	8g/J	.	16ee\L	.	.	.	.	.	.	.	.	.	.	.
.	.	.	.	.	.	16cc\JJ	.	.	.	.	.	.	.	.	.	.	.
=2	=2	=2	=2	=2	=2	=2	=2	=2	=2	=2	=2	=2	=2	=2	=2	=2	=2
4G\	.	4g\	.	16b/LL	.	16dd\LL	.	.	.	.	.	.	.	.	.	.	.
.	.	.	.	16a/	.	16cc\	.	.	.	.	.	.	.	.	.	.	.
.	.	.	.	16g/	.	16b\	.	.	.	.	.	.	.	.	.	.	.
.	.	.	.	16f#/JJ	.	16a\JJ	.	.	.	.	.	.	.	.	.	.	.
!	!	!	!	!	!	!LO:TX:a:t=P:problem:mixed beam	!	!	!	!	!	!	!	!	!	!	!
8B\L	.	8d\L	.	8g/L	.	8g/L	.	.	.	.	.	.	.	.	.	.	.
8G\J	.	8g\J	.	8b/J	.	8dd\J	.	.	.	.	.	.	.	.	.	.	.
=3	=3	=3	=3	=3	=3	=3	=3	=3	=3	=3	=3	=3	=3	=3	=3	=3	=3
!	!	!	!	!LO:TX:a:t=P:problem:mixed beam	!	!	!	!	!	!	!	!	!	!	!	!	!
4C/	.	8g\L	.	8cc\L	.	8ee\L	.	.	.	.	.	.	.	.	.	.	.
.	.	8g\	.	8e/	.	16cc\L	.	.	.	.	.	.	.	.	.	.	.
.	.	.	.	.	.	16b\JJ	.	.	.	.	.	.	.	.	.	.	.
!LO:TX:a:t=P:problem:mixed beam	!	!	!	!	!	!	!	!	!	!	!	!	!	!	!	!	!
8c\L	.	8e\	.	8a/	.	8cc\L	.	.	.	.	.	.	.	.	.	.	.
.	X 6	.	.	.	.	.	.	.	.	.	.	.	.	.	.	.	.
8C/J	X 5	8c\J	.	8e/J	.	16a\L	.	.	.	.	.	.	.	.	.	.	.
.	.	.	.	.	.	16g\JJ	.	.	.	.	.	.	.	.	.	.	.
=4	=4	=4	=4	=4	=4	=4	=4	=4	=4	=4	=4	=4	=4	=4	=4	=4	=4
!	!	!LO:TX:a:t=P:problem:mixed beam	!	!	!	!	!	!	!	!	!	!	!	!	!	!	!
8D\L	.	8A/L	.	8d/L	.	8f#/L	.	.	.	.	.	.	.	.	.	.	.
16D\L	.	16a\L	.	16f#/L	.	8d/J	.	.	.	.	.	.	.	.	.	.	.
16E\JJ	.	16g\JJ	.	16g/JJ	.	.	.	.	.	.	.	.	.	.	.	.	.
8F#\L	.	8f#\L	.	8a/L	.	8r	.	.	.	.	.	.	.	.	.	.	.
8G\J	.	8b\J	.	8b/J	.	8dd\	.	.	.	.	.	.	.	.	.	.	.
=5	=5	=5	=5	=5	=5	=5	=5	=5	=5	=5	=5	=5	=5	=5	=5	=5	=5
!	!	!	!	!	!	!	!	!LO:N:vis=00	!	!LO:N:vis=00	!	!	!	!	!	!	!
!	!	!	!	!	!	!	!	!	!	!	!	!LO:N:vis=00	!	!	!	!	!
!	!	!	!	!	!	!	!	!	!	!	!	!	!	!LO:N:vis=00	!	!LO:N:vis=00	!LO:N:vis=00
8c\L	.	8g\L	.	16cc\LL	.	16ee\LL	.	0r	.	0r	.	0r	.	0r	.	0r	0r
.	.	.	.	16dd\	.	16ffn\	.	.	.	.	.	.	.	.	.	.	.
8G\J	x 7-	8g\	.	16b\	.	16dd\	.	.	.	.	.	.	.	.	.	.	.
.	.	.	.	16dd\JJ	.	16ff\JJ	.	.	.	.	.	.	.	.	.	.	.
!LO:TX:a:t=P:problem:mixed beam	!	!	!	!	!	!	!	!	!	!	!	!	!	!	!	!	!
8C/L	.	8g\	.	16cc\LL	.	16ee\LL	.	.	.	.	.	.	.	.	.	.	.
.	.	.	.	16dd\	.	16ff\	.	.	.	.	.	.	.	.	.	.	.
8G\J	X 7-	8g\J	.	16b\	.	16dd\	.	.	.	.	.	.	.	.	.	.	.
.	.	.	.	16dd\JJ	.	16ff\JJ	.	.	.	.	.	.	.	.	.	.	.
=6	=6	=6	=6	=6	=6	=6	=6	=6	=6	=6	=6	=6	=6	=6	=6	=6	=6
!	!	!	!	!LO:TX:a:t=P:problem:mixed beam	!	!	!	!	!	!	!	!	!	!	!	!	!
8c\L	.	8g\L	.	8cc\L	.	16ee\LL	.	.	.	.	.	.	.	.	.	.	.
.	.	.	.	.	.	16dd\	.	.	.	.	.	.	.	.	.	.	.
8G\J	.	8g\	.	16e/L	.	16cc\	.	.	.	.	.	.	.	.	.	.	.
.	.	.	.	16d/JJ	.	16b\JJ	.	.	.	.	.	.	.	.	.	.	.
!LO:TX:a:t=P:problem:mixed beam	!	!	!	!LO:TX:a:t=P:problem:mixed beam	!	!	!	!	!	!	!	!	!	!	!	!	!
8C/L	.	8g\	.	8e/L	.	8cc\L	.	.	.	.	.	.	.	.	.	.	.
8A\J	X #	8a\J	.	8cc#X\J	.	8ee\J	.	.	.	.	.	.	.	.	.	.	.
=7	=7	=7	=7	=7	=7	=7	=7	=7	=7	=7	=7	=7	=7	=7	=7	=7	=7
8d\L	.	8a\L	.	16dd\LL	.	16ff#X\LL	.	.	.	.	.	.	.	.	.	.	.
.	.	.	.	16ee\	.	16gg\	.	.	.	.	.	.	.	.	.	.	.
8A\J	7 #	8a\	.	16cc#X\	.	16ee\	.	.	.	.	.	.	.	.	.	.	.
.	.	.	.	16ee\JJ	.	16gg\JJ	.	.	.	.	.	.	.	.	.	.	.
!LO:TX:a:t=P:problem:mixed beam	!	!	!	!	!	!	!	!	!	!	!	!	!	!	!	!	!
8D/L	.	8a\	.	16dd\LL	.	16ff#\LL	.	.	.	.	.	.	.	.	.	.	.
.	.	.	.	16ee\	.	16gg\	.	.	.	.	.	.	.	.	.	.	.
8A\J	7 #	8a\J	.	16cc#X\	.	16ee\	.	.	.	.	.	.	.	.	.	.	.
.	.	.	.	16ee\JJ	.	16gg\JJ	.	.	.	.	.	.	.	.	.	.	.
!	!	!	!	!	!	!LO:LB:g=original	!	!	!	!	!	!	!	!	!	!	!
=8	=8	=8	=8	=8	=8	=8	=8	=8	=8	=8	=8	=8	=8	=8	=8	=8	=8
!	!	!	!	!LO:TX:a:t=P:problem:mixed beam	!	!	!	!	!	!	!	!	!	!	!	!	!
8d\L	.	8a\L	.	8dd\L	.	16ff#\LL	.	.	.	.	.	.	.	.	.	.	.
.	.	.	.	.	.	16ee\	.	.	.	.	.	.	.	.	.	.	.
8A\J	X #	8a\	.	16f#/L	.	16dd\	.	.	.	.	.	.	.	.	.	.	.
.	.	.	.	16e/JJ	.	16cc#X\JJ	.	.	.	.	.	.	.	.	.	.	.
8D/L	.	8a\	.	8f#/L	.	8dd\L	.	.	.	.	.	.	.	.	.	.	.
8BB/J	.	8d\J	.	8b/J	.	8gg\J	.	.	.	.	.	.	.	.	.	.	.
!	!	!	!	!LO:LB:g=original	!	!	!	!	!	!	!	!	!	!	!	!	!
=9	=9	=9	=9	=9	=9	=9	=9	=9	=9	=9	=9	=9	=9	=9	=9	=9	=9
!	!	!	!	!	!	!	!	!LO:N:vis=00	!	!LO:N:vis=00	!	!	!	!	!	!	!
!	!	!	!	!	!	!	!	!	!	!	!	!LO:N:vis=00	!	!	!	!	!
!	!	!	!	!	!	!	!	!	!	!	!	!	!	!LO:N:vis=0	!	!LO:N:vis=00	!LO:N:vis=00
4GG/	.	4g\	.	4b/	.	8gg\L	.	0r	.	0r	.	0r	.	1r	.	0r	0r
.	.	.	.	.	.	8dd\J	.	.	.	.	.	.	.	.	.	.	.
!LO:TX:a:t=P:problem:mixed beam	!	!	!	!	!	!	!	!	!	!	!	!	!	!	!	!	!
8G\L	.	8g\L	.	8b/L	.	8dd\L	.	.	.	.	.	.	.	.	.	.	.
8C/J	.	8e\J	.	8g/J	.	16ee\L	.	.	.	.	.	.	.	.	.	.	.
.	.	.	.	.	.	16cc\JJ	.	.	.	.	.	.	.	.	.	.	.
!LO:LB:g=original	!	!	!	!	!	!	!	!	!	!	!	!	!	!	!	!	!
=10	=10	=10	=10	=10	=10	=10	=10	=10	=10	=10	=10	=10	=10	=10	=10	=10	=10
8G\L	.	8B/L	.	16b/LL	.	16dd\LL	.	.	.	.	.	.	.	.	.	.	.
.	.	.	.	16a/	.	16cc\	.	.	.	.	.	.	.	.	.	.	.
8A\	.	8c/J	.	16g/	.	16b\	.	.	.	.	.	.	.	.	.	.	.
.	.	.	.	16f#/JJ	.	16a\JJ	.	.	.	.	.	.	.	.	.	.	.
!	!	!	!	!	!	!LO:TX:a:t=P:problem:mixed beam	!	!	!	!	!	!	!	!	!	!	!
8B\	.	8d\L	.	8g/L	.	8g/L	.	.	.	.	.	.	.	.	.	.	.
8F#\J	X 6	8d\J	.	8a/J	.	8dd\J	.	.	.	.	.	.	.	.	.	.	.
=11	=11	=11	=11	=11	=11	=11	=11	=11	=11	=11	=11	=11	=11	=11	=11	=11	=11
!LO:TX:a:t=P:problem:mixed beam	!	!	!	!	!	!	!	!	!	!	!	!	!	!	!	!	!
8G\L	.	8d\L	.	8g/L	.	8b\L	.	.	.	.	.	.	.	2r	.	.	.
8C\	6 5	8e\	.	8g/	.	16ee\L	.	.	.	.	.	.	.	.	.	.	.
.	.	.	.	.	.	16a\JJ	.	.	.	.	.	.	.	.	.	.	.
8D\	.	8d\	.	8g/	.	4a/	.	.	.	.	.	.	.	.	.	.	.
.	X 4	.	.	.	.	.	.	.	.	.	.	.	.	.	.	.	.
8DD/J	X 3	8d\J	.	8f#/J	.	.	.	.	.	.	.	.	.	.	.	.	.
!	!	!LO:LB:g=original	!	!	!	!	!	!	!	!	!	!	!	!	!	!	!
=12	=12	=12	=12	=12	=12	=12	=12	=12	=12	=12	=12	=12	=12	=12	=12	=12	=12
!LO:TX:a:t=P:problem:mixed beam	!	!	!	!	!	!	!	!	!	!	!	!	!	!	!	!	!
8GG/L	.	4d\	.	4g/	.	4g/	.	.	.	.	.	.	.	4r	.	.	.
8G\J	.	.	.	.	.	.	.	.	.	.	.	.	.	.	.	.	.
!	!	!	!	!	!	!	!LO:DY:b:t=piano	!	!	!	!	!	!	!	!	!	!
4GG/	.	4r	.	4r	.	8r	p	.	.	.	.	.	.	8r	.	.	.
.	.	.	.	.	.	8gg\	.	.	.	.	.	.	.	8gg\	Dif-	.	.
=13	=13	=13	=13	=13	=13	=13	=13	=13	=13	=13	=13	=13	=13	=13	=13	=13	=13
!	!	!	!LO:DY:b:t=piano	!	!LO:DY:b:t=piano	!	!	!	!	!	!	!	!	!	!	!	!
!	!	!	!	!	!	!	!	!LO:N:vis=00	!	!LO:N:vis=00	!	!	!	!	!	!	!
!	!	!	!	!	!	!	!	!	!	!	!	!LO:N:vis=00	!	!	!	!LO:N:vis=00	!LO:N:vis=00
2r	.	4g\	p	4b/	p	8gg\L	.	0r	.	0r	.	0r	.	8gg\	-fu-	0r	0r
.	.	.	.	.	.	8dd\J	.	.	.	.	.	.	.	8dd\	-sa	.	.
.	.	8g\L	.	8b/L	.	8dd\L	.	.	.	.	.	.	.	(>8dd\L	eſt	.	.
.	.	8d\J	.	8g/J	.	16ee\L	.	.	.	.	.	.	.	16ee\L	.	.	.
.	.	.	.	.	.	16cc\JJ	.	.	.	.	.	.	.	16cc\JJ)	.	.	.
=14	=14	=14	=14	=14	=14	=14	=14	=14	=14	=14	=14	=14	=14	=14	=14	=14	=14
4r	.	8g\L	.	16b/LL	.	16dd\LL	.	.	.	.	.	.	.	(>16dd\LL	gra-	.	.
.	.	.	.	16a/	.	16cc\	.	.	.	.	.	.	.	16cc\JJ)	.	.	.
.	.	8d\J	.	16g/	.	16b\	.	.	.	.	.	.	.	(>16b\LL	-ti-	.	.
.	.	.	.	16f#/JJ	.	16a\JJ	.	.	.	.	.	.	.	16a\JJ)	.	.	.
!	!	!LO:TX:a:t=P:problem:mixed beam	!	!	!	!LO:TX:a:t=P:problem:mixed beam	!	!	!	!	!	!	!	!	!	!	!
!	!	!	!	!	!LO:DY:b:t=forte	!	!	!	!	!	!	!	!	!	!	!	!
8r	.	8G/L	.	8g/L	f	8g/L	.	.	.	.	.	.	.	8g/	-a	.	.
!	!	!	!LO:DY:b:t=forte	!	!	!	!	!	!	!	!	!	!	!	!	!	!
8G\	.	8g\J	f	8b/J	.	8dd\J	.	.	.	.	.	.	.	8r	.	.	.
=15	=15	=15	=15	=15	=15	=15	=15	=15	=15	=15	=15	=15	=15	=15	=15	=15	=15
!	!	!	!	!	!	!	!LO:DY:b:t=forte	!	!	!	!	!	!	!	!	!	!
!	!	!	!	!	!	!	!	!	!	!	!	!	!	!LO:N:vis=00	!	!	!
8c\L	.	8g\L	.	16cc\LL	.	16ee\LL	f	.	.	.	.	.	.	0r	.	.	.
.	.	.	.	16dd\	.	16ffn\	.	.	.	.	.	.	.	.	.	.	.
8G\J	.	8g\	.	16b\	.	16dd\	.	.	.	.	.	.	.	.	.	.	.
.	.	.	.	16dd\JJ	.	16ff\JJ	.	.	.	.	.	.	.	.	.	.	.
8r	.	8g\	.	16cc\LL	.	16ee\LL	.	.	.	.	.	.	.	.	.	.	.
.	.	.	.	16dd\	.	16ffn\	.	.	.	.	.	.	.	.	.	.	.
8G\	.	8g\J	.	16b\	.	16dd\	.	.	.	.	.	.	.	.	.	.	.
.	.	.	.	16dd\JJ	.	16ff\JJ	.	.	.	.	.	.	.	.	.	.	.
=16	=16	=16	=16	=16	=16	=16	=16	=16	=16	=16	=16	=16	=16	=16	=16	=16	=16
!	!	!	!	!LO:TX:a:t=P:problem:mixed beam	!	!	!	!	!	!	!	!	!	!	!	!	!
8c\L	.	8g\L	.	8cc\L	.	16ee\LL	.	.	.	.	.	.	.	.	.	.	.
.	.	.	.	.	.	16dd\	.	.	.	.	.	.	.	.	.	.	.
8G\J	.	8g\	.	8d/J	.	16cc\	.	.	.	.	.	.	.	.	.	.	.
.	.	.	.	.	.	16b\JJ	.	.	.	.	.	.	.	.	.	.	.
!LO:TX:a:t=P:problem:mixed beam	!	!	!	!LO:TX:a:t=P:problem:mixed beam	!	!	!	!	!	!	!	!	!	!	!	!	!
8C/L	.	8g\	.	8e/L	.	8cc\L	.	.	.	.	.	.	.	.	.	.	.
8A\J	x #	8a\J	.	8cc#X\J	.	8ee\J	.	.	.	.	.	.	.	.	.	.	.
!	!	!	!	!	!	!LO:LB:g=original	!	!	!	!	!	!	!	!	!	!	!
=17	=17	=17	=17	=17	=17	=17	=17	=17	=17	=17	=17	=17	=17	=17	=17	=17	=17
!	!	!LO:TX:a:t=P:problem:brak t. 18.	!	!	!	!	!	!	!	!	!	!	!	!	!	!	!
!	!	!	!	!	!	!	!	!LO:N:vis=00	!	!LO:N:vis=00	!	!	!	!	!	!	!
!	!	!	!	!	!	!	!	!	!	!	!	!LO:N:vis=00	!	!	!	!LO:N:vis=00	!LO:N:vis=00
8d\L	.	2ryy	.	16dd\LL	.	16ff#\LL	.	0r	.	0r	.	0r	.	.	.	0r	0r
.	.	.	.	16ee\	.	16gg\	.	.	.	.	.	.	.	.	.	.	.
8A\J	7 #	.	.	16cc#X\	.	16ee\	.	.	.	.	.	.	.	.	.	.	.
.	.	.	.	16ee\JJ	.	16gg\JJ	.	.	.	.	.	.	.	.	.	.	.
8r	.	.	.	16dd\LL	.	16ff#\LL	.	.	.	.	.	.	.	.	.	.	.
.	.	.	.	16ee\	.	16gg\	.	.	.	.	.	.	.	.	.	.	.
8A\	7 #	.	.	16cc#X\	.	16ee\	.	.	.	.	.	.	.	.	.	.	.
.	.	.	.	16ee\JJ	.	16gg\JJ	.	.	.	.	.	.	.	.	.	.	.
=18	=18	=18	=18	=18	=18	=18	=18	=18	=18	=18	=18	=18	=18	=18	=18	=18	=18
!	!	!	!	!LO:TX:a:t=P:problem:mixed beam	!	!	!	!	!	!	!	!	!	!	!	!	!
8d\L	.	8a\L	.	8dd\L	.	16ff#\LL	.	.	.	.	.	.	.	.	.	.	.
.	.	.	.	.	.	16ee\	.	.	.	.	.	.	.	.	.	.	.
8A\J	7 #	8a\	.	8e/J	.	16dd\	.	.	.	.	.	.	.	.	.	.	.
.	.	.	.	.	.	16cc#X\JJ	.	.	.	.	.	.	.	.	.	.	.
8D/L	.	8a\	.	8f#/L	.	8dd\L	.	.	.	.	.	.	.	.	.	.	.
8BB/J	X 6	8d\J	.	8b/J	.	8gg\J	.	.	.	.	.	.	.	.	.	.	.
!	!	!	!	!LO:LB:g=original	!	!	!	!	!	!	!	!	!	!	!	!	!
=19	=19	=19	=19	=19	=19	=19	=19	=19	=19	=19	=19	=19	=19	=19	=19	=19	=19
!	!	!	!	!	!	!	!	!	!	!	!	!	!	!LO:N:vis=0	!	!	!
4GG/	.	4g\	.	4b/	.	8gg\L	.	.	.	.	.	.	.	1r	.	.	.
.	.	.	.	.	.	8dd\J	.	.	.	.	.	.	.	.	.	.	.
8G\L	.	8g\L	.	8b/L	.	8dd\L	.	.	.	.	.	.	.	.	.	.	.
8C\J	.	8e\J	.	8g/J	.	16ee\L	.	.	.	.	.	.	.	.	.	.	.
.	.	.	.	.	.	16cc\JJ	.	.	.	.	.	.	.	.	.	.	.
=20	=20	=20	=20	=20	=20	=20	=20	=20	=20	=20	=20	=20	=20	=20	=20	=20	=20
8G\L	.	8B/L	.	16b/LL	.	16dd\LL	.	.	.	.	.	.	.	.	.	.	.
.	.	.	.	16a/	.	16cc\	.	.	.	.	.	.	.	.	.	.	.
8A\	.	8c/J	.	16g/	.	16b\	.	.	.	.	.	.	.	.	.	.	.
.	.	.	.	16f#/JJ	.	16a\JJ	.	.	.	.	.	.	.	.	.	.	.
!	!	!	!	!	!	!LO:TX:a:t=P:problem:mixed beam	!	!	!	!	!	!	!	!	!	!	!
8B\	X 6	8d\L	.	8g/L	.	8g/L	.	.	.	.	.	.	.	.	.	.	.
8F#\J	X 6	8d\J	.	8a/J	.	8dd\J	.	.	.	.	.	.	.	.	.	.	.
!LO:LB:g=original	!	!	!	!	!	!	!	!	!	!	!	!	!	!	!	!	!
=21	=21	=21	=21	=21	=21	=21	=21	=21	=21	=21	=21	=21	=21	=21	=21	=21	=21
!LO:TX:a:t=P:problem:mixed beam	!	!	!	!	!	!	!	!	!	!	!	!	!	!	!	!	!
!	!	!	!	!	!	!	!	!LO:N:vis=00	!	!LO:N:vis=00	!	!	!	!	!	!	!
!	!	!	!	!	!	!	!	!	!	!	!	!LO:N:vis=00	!	!	!	!LO:N:vis=00	!LO:N:vis=00
8G\L	.	8d\L	.	8g/L	.	8b\L	.	0r	.	0r	.	0r	.	2r	.	0r	0r
8C/J	.	8e\	.	8g/	.	16ee\L	.	.	.	.	.	.	.	.	.	.	.
.	.	.	.	.	.	16a\JJ	.	.	.	.	.	.	.	.	.	.	.
8D/L	.	8d\	.	8g/	.	4a/	.	.	.	.	.	.	.	.	.	.	.
.	5 4	.	.	.	.	.	.	.	.	.	.	.	.	.	.	.	.
8DD/J	X 3	8d\J	.	8f#/J	.	.	.	.	.	.	.	.	.	.	.	.	.
=22	=22	=22	=22	=22	=22	=22	=22	=22	=22	=22	=22	=22	=22	=22	=22	=22	=22
!LO:TX:a:t=P:problem:mixed beam	!	!	!	!	!	!	!	!	!	!	!	!	!	!	!	!	!
8GG/L	.	4d\	.	4g/	.	4g/	.	.	.	.	.	.	.	4r	.	.	.
8G\J	.	.	.	.	.	.	.	.	.	.	.	.	.	.	.	.	.
4GG/	.	4r	.	8r	.	8r	.	.	.	.	.	.	.	8r	.	.	.
!	!	!	!	!	!LO:DY:b:t=piano	!	!	!	!	!	!	!	!	!	!	!	!
!	!	!	!	!	!	!	!LO:DY:b:t=piano	!	!	!	!	!	!	!	!	!	!
.	.	.	.	8b/	p	8gg\	p	.	.	.	.	.	.	8gg\	Dif-	.	.
=23	=23	=23	=23	=23	=23	=23	=23	=23	=23	=23	=23	=23	=23	=23	=23	=23	=23
!LO:N:vis=00	!	!	!	!	!	!	!	!	!	!	!	!	!	!	!	!	!
!	!	!	!LO:DY:b:t=piano	!	!	!	!	!	!	!	!	!	!	!	!	!	!
0r	.	4g\	p	4b/	.	8gg\L	.	.	.	.	.	.	.	8gg\	-fu-	.	.
.	.	.	.	.	.	8dd\J	.	.	.	.	.	.	.	8dd\	-sa	.	.
.	.	8g\L	.	8b/L	.	8dd\L	.	.	.	.	.	.	.	(>8dd\L	eſt	.	.
.	.	8d\J	.	8g/J	.	16ee\L	.	.	.	.	.	.	.	16ee\L	.	.	.
.	.	.	.	.	.	16cc\JJ	.	.	.	.	.	.	.	16cc\JJ)	.	.	.
=24	=24	=24	=24	=24	=24	=24	=24	=24	=24	=24	=24	=24	=24	=24	=24	=24	=24
.	.	4.g\	.	16b/LL	.	16dd\LL	.	.	.	.	.	.	.	(>16dd\LL	gra-	.	.
.	.	.	.	16a/	.	16cc\	.	.	.	.	.	.	.	16cc\JJ)	.	.	.
.	.	.	.	16g/	.	16b\	.	.	.	.	.	.	.	(>16b\LL	-ti-	.	.
.	.	.	.	16f#/JJ	.	16a\JJ	.	.	.	.	.	.	.	16a\JJ)	.	.	.
!	!	!	!	!	!	!LO:TX:a:t=P:problem:mixed beam	!	!	!	!	!	!	!	!	!	!	!
.	.	.	.	8g/L	.	8g/L	.	.	.	.	.	.	.	8g/	-a	.	.
.	.	8g\	.	8b/J	.	8dd\J	.	.	.	.	.	.	.	8dd\	in	.	.
!	!	!	!	!	!	!	!	!	!	!	!	!	!	!LO:LB:g=original	!	!	!
=25	=25	=25	=25	=25	=25	=25	=25	=25	=25	=25	=25	=25	=25	=25	=25	=25	=25
!	!	!	!	!LO:TX:a:t=P:problem:mixed beam	!	!	!	!	!	!	!	!	!	!	!	!	!
!	!	!	!	!	!	!	!	!LO:N:vis=00	!	!LO:N:vis=00	!	!	!	!	!	!	!
!	!	!	!	!	!	!	!	!	!	!	!	!LO:N:vis=00	!	!	!	!LO:N:vis=00	!LO:N:vis=00
.	.	4c/	.	8cc\L	.	8ee\L	.	0r	.	0r	.	0r	.	8ee\L	la-	0r	0r
.	.	.	.	8e/J	.	16cc\L	.	.	.	.	.	.	.	16cc\L	.	.	.
.	.	.	.	.	.	16b\JJ	.	.	.	.	.	.	.	16b\JJ	.	.	.
.	.	8c/L	.	8a/L	.	8cc\L	.	.	.	.	.	.	.	8cc\	.	.	.
.	.	8c/J	.	8e/J	.	16a\L	.	.	.	.	.	.	.	16a\	-bi-	.	.
.	.	.	.	.	.	16g\JJ	.	.	.	.	.	.	.	16g/	-is	.	.
!	!	!	!	!	!	!LO:LB:g=original	!	!	!	!	!	!	!	!	!	!	!
=26	=26	=26	=26	=26	=26	=26	=26	=26	=26	=26	=26	=26	=26	=26	=26	=26	=26
.	.	8d\L	.	8d/L	.	8f#/L	.	.	.	.	.	.	.	8f#/	tu-	.	.
.	.	16d\L	.	16f#/L	.	8d/J	.	.	.	.	.	.	.	8d/	-is	.	.
.	.	16e\JJ	.	16g/JJ	.	.	.	.	.	.	.	.	.	.	.	.	.
.	.	8f#\L	.	8a/L	.	8r	.	.	.	.	.	.	.	8r	.	.	.
.	.	8g\J	.	8b/J	.	8dd\	.	.	.	.	.	.	.	8dd\	dif-	.	.
!	!	!LO:LB:g=original	!	!	!	!	!	!	!	!	!	!	!	!	!	!	!
=27	=27	=27	=27	=27	=27	=27	=27	=27	=27	=27	=27	=27	=27	=27	=27	=27	=27
!LO:N:vis=00	!	!	!	!	!	!	!	!	!	!	!	!	!	!	!	!	!
0r	.	8g\L	.	16cc\LL	.	16ee\LL	.	.	.	.	.	.	.	16ee\LL	-fu-	.	.
.	.	.	.	16dd\	.	16ffn\	.	.	.	.	.	.	.	16ffn\	.	.	.
.	.	8g\	.	16b\	.	16dd\	.	.	.	.	.	.	.	16dd\	.	.	.
.	.	.	.	16dd\JJ	.	16ff\JJ	.	.	.	.	.	.	.	16ff\JJ	.	.	.
.	.	8g\	.	16cc\LL	.	16ee\LL	.	.	.	.	.	.	.	(>16ee\LL	-sa	.	.
.	.	.	.	16dd\	.	16ff\	.	.	.	.	.	.	.	16ffn\)	.	.	.
.	.	8g\J	.	16b\	.	16dd\	.	.	.	.	.	.	.	(>16dd\	eſt	.	.
.	.	.	.	16dd\JJ	.	16ff\JJ	.	.	.	.	.	.	.	16ffn\JJ)	.	.	.
=28	=28	=28	=28	=28	=28	=28	=28	=28	=28	=28	=28	=28	=28	=28	=28	=28	=28
!	!	!	!	!LO:TX:a:t=P:problem:mixed beam	!	!	!	!	!	!	!	!	!	!	!	!	!
.	.	8g\L	.	8cc\L	.	16ee\LL	.	.	.	.	.	.	.	(>16ee\LL	gra-	.	.
.	.	.	.	.	.	16dd\	.	.	.	.	.	.	.	16dd\JJ)	.	.	.
.	.	8g\J	.	16e/L	.	16cc\	.	.	.	.	.	.	.	(>16cc\LL	-ti-	.	.
.	.	.	.	16d/JJ	.	16b\JJ	.	.	.	.	.	.	.	16b\JJ)	.	.	.
!	!	!LO:TX:a:t=P:problem:mixed beam	!	!LO:TX:a:t=P:problem:mixed beam	!	!	!	!	!	!	!	!	!	!	!	!	!
.	.	8d/L	.	8e/L	.	8cc\L	.	.	.	.	.	.	.	8cc\	-a	.	.
.	.	8a\J	.	8cc#X\J	.	8ee\J	.	.	.	.	.	.	.	8ee\	dif-	.	.
=29	=29	=29	=29	=29	=29	=29	=29	=29	=29	=29	=29	=29	=29	=29	=29	=29	=29
!	!	!	!	!	!	!	!	!LO:N:vis=00	!	!LO:N:vis=00	!	!	!	!	!	!	!
!	!	!	!	!	!	!	!	!	!	!	!	!LO:N:vis=00	!	!	!	!LO:N:vis=00	!LO:N:vis=00
.	.	8a\L	.	16dd\LL	.	16ff#\LL	.	0r	.	0r	.	0r	.	16ff#X\LL	-fu-	0r	0r
.	.	.	.	16ee\	.	16gg\	.	.	.	.	.	.	.	16gg\	.	.	.
.	.	8a\	.	16cc#X\	.	16ee\	.	.	.	.	.	.	.	16ee\	.	.	.
.	.	.	.	16ee\JJ	.	16gg\JJ	.	.	.	.	.	.	.	16gg\JJ	.	.	.
!	!	!	!	!LO:LB:g=original	!	!	!	!	!	!	!	!	!	!	!	!	!
.	.	8a\	.	16dd\LL	.	16ff#\LL	.	.	.	.	.	.	.	(>16ff#\LL	-sa	.	.
.	.	.	.	16ee\	.	16gg\	.	.	.	.	.	.	.	16gg\JJ)	.	.	.
.	.	8a\J	.	16cc#X\	.	16ee\	.	.	.	.	.	.	.	(>16ee\LL	eſt	.	.
.	.	.	.	16ee\JJ	.	16gg\JJ	.	.	.	.	.	.	.	16gg\JJ)	.	.	.
=30	=30	=30	=30	=30	=30	=30	=30	=30	=30	=30	=30	=30	=30	=30	=30	=30	=30
!	!	!	!	!LO:TX:a:t=P:problem:mixed beam	!	!	!	!	!	!	!	!	!	!	!	!	!
.	.	8a\L	.	8dd\L	.	16ff#\LL	.	.	.	.	.	.	.	(>16ff#\LL	gra-	.	.
.	.	.	.	.	.	16ee\	.	.	.	.	.	.	.	16ee\JJ)	.	.	.
.	.	8a\J	.	16f#/L	.	16dd\	.	.	.	.	.	.	.	(>16dd\LL	-ti-	.	.
.	.	.	.	16e/JJ	.	16cc#X\JJ	.	.	.	.	.	.	.	16cc#X\JJ)	.	.	.
.	.	8d/L	.	8f#/L	.	8dd\L	.	.	.	.	.	.	.	8dd\	-a	.	.
.	.	8B/J	.	8b/J	.	8gg\J	.	.	.	.	.	.	.	8gg\	dif-	.	.
=31	=31	=31	=31	=31	=31	=31	=31	=31	=31	=31	=31	=31	=31	=31	=31	=31	=31
!	!	!LO:TX:a:t=P:problem:niewyraźny zapis tej nuty w źródle	!	!	!	!	!	!	!	!	!	!	!	!	!	!	!
!LO:N:vis=0	!	!	!	!	!	!	!	!	!	!	!	!	!	!	!	!	!
1r	.	4G/	.	4b/	.	8gg\L	.	.	.	.	.	.	.	8gg\	-fu-	.	.
.	.	.	.	.	.	8dd\J	.	.	.	.	.	.	.	8dd\	-sa	.	.
!	!	!	!	!	!	!	!	!	!	!	!	!	!	!LO:LB:g=original	!	!	!
.	.	8g\L	.	8b/L	.	8dd\L	.	.	.	.	.	.	.	8dd\L	eſt	.	.
.	.	8c\J	.	8g/J	.	16ee\L	.	.	.	.	.	.	.	16ee\L	.	.	.
.	.	.	.	.	.	16cc\JJ	.	.	.	.	.	.	.	16dd\JJ	.	.	.
=32	=32	=32	=32	=32	=32	=32	=32	=32	=32	=32	=32	=32	=32	=32	=32	=32	=32
.	.	8g\L	.	8b/L	.	16dd\LL	.	.	.	.	.	.	.	(>16dd\LL	gra-	.	.
.	.	.	.	.	.	16cc\	.	.	.	.	.	.	.	16cc\JJ)	.	.	.
.	.	8a\	.	16g/L	.	16b\	.	.	.	.	.	.	.	(>16b\LL	-ti-	.	.
.	.	.	.	16f#/JJ	.	16a\JJ	.	.	.	.	.	.	.	16a\JJ)	.	.	.
!	!	!	!	!	!	!LO:TX:a:t=P:problem:mixed beam	!	!	!	!	!	!	!	!	!	!	!
.	.	8b\	.	8g/L	.	8g/L	.	.	.	.	.	.	.	8g/	-a	.	.
.	.	8f#\J	.	8a/J	.	8dd\J	.	.	.	.	.	.	.	8dd\	in	.	.
=33	=33	=33	=33	=33	=33	=33	=33	=33	=33	=33	=33	=33	=33	=33	=33	=33	=33
!	!	!	!	!	!	!	!	!LO:N:vis=00	!	!LO:N:vis=00	!	!	!	!	!	!	!
!	!	!	!	!	!	!	!	!	!	!	!	!LO:N:vis=00	!	!	!	!LO:N:vis=00	!LO:N:vis=00
2r	.	8g\L	.	8g/L	.	8b\L	.	0r	.	0r	.	0r	.	8b\	la-	0r	0r
.	.	8c\J	.	8e/J	.	16ee\L	.	.	.	.	.	.	.	16ee\	-bi-	.	.
.	.	.	.	.	.	16a\JJ	.	.	.	.	.	.	.	16a\	-is	.	.
!	!	!LO:TX:a:t=P:problem:mixed beam	!	!	!	!	!	!	!	!	!	!	!	!	!	!	!
.	.	8d\L	.	8d/L	.	4a/	.	.	.	.	.	.	.	4a\	tu-	.	.
.	.	8D/J	.	8d/J	.	.	.	.	.	.	.	.	.	.	.	.	.
=34	=34	=34	=34	=34	=34	=34	=34	=34	=34	=34	=34	=34	=34	=34	=34	=34	=34
!	!	!	!	!	!	!	!LO:DY:b:t=piano	!	!	!	!	!	!	!	!	!	!
8r	.	4G/	.	4d/	.	4g/	p	.	.	.	.	.	.	4g/	-is	.	.
8G\	.	.	.	.	.	.	.	.	.	.	.	.	.	.	.	.	.
4GG/	.	8r	.	8r	.	8r	.	.	.	.	.	.	.	8r	.	.	.
!	!	!	!LO:DY:b:t=pianiſsimo	!	!LO:DY:b:t=piano	!	!	!	!	!	!	!	!	!	!	!	!
.	.	8g\	pp	8b/	p	8dd\	.	.	.	.	.	.	.	8dd\	dif-	.	.
!	!	!	!	!	!	!LO:LB:g=original	!	!	!	!	!	!	!	!	!	!	!
=35	=35	=35	=35	=35	=35	=35	=35	=35	=35	=35	=35	=35	=35	=35	=35	=35	=35
!LO:N:vis=00	!	!	!	!	!	!	!	!	!	!	!	!	!	!	!	!	!
0r	.	8g\L	.	16cc\LL	.	16ee\LL	.	.	.	.	.	.	.	16ee\LL	-fu-	.	.
.	.	.	.	16dd\	.	16ffn\	.	.	.	.	.	.	.	16ffn\	.	.	.
.	.	8g\	.	16b\	.	16dd\	.	.	.	.	.	.	.	16dd\	.	.	.
.	.	.	.	16dd\JJ	.	16ff\JJ	.	.	.	.	.	.	.	16ff\JJ	.	.	.
.	.	8g\	.	16cc\LL	.	16ee\LL	.	.	.	.	.	.	.	(>16ee\LL	-sa	.	.
.	.	.	.	16dd\	.	16ff\	.	.	.	.	.	.	.	16ffn\)	.	.	.
.	.	8g\J	.	16b\	.	16dd\	.	.	.	.	.	.	.	(>16dd\	eſt	.	.
.	.	.	.	16dd\JJ	.	16ff\JJ	.	.	.	.	.	.	.	16ffn\JJ)	.	.	.
=36	=36	=36	=36	=36	=36	=36	=36	=36	=36	=36	=36	=36	=36	=36	=36	=36	=36
!	!	!	!	!LO:TX:a:t=P:problem:mixed beam	!	!	!	!	!	!	!	!	!	!	!	!	!
.	.	8g\L	.	8cc\L	.	16ee\LL	.	.	.	.	.	.	.	(>16ee\LL	gra-	.	.
.	.	.	.	.	.	16dd\	.	.	.	.	.	.	.	16dd\JJ)	.	.	.
.	.	8g\J	.	16e/L	.	16cc\	.	.	.	.	.	.	.	(>16cc\LL	-ti-	.	.
.	.	.	.	16d/JJ	.	16b\JJ	.	.	.	.	.	.	.	16b\JJ)	.	.	.
!	!	!LO:TX:a:t=P:problem:mixed beam	!	!LO:TX:a:t=P:problem:mixed beam	!	!	!	!	!	!	!	!	!	!	!	!	!
.	.	8c/L	.	8e/L	.	8cc\L	.	.	.	.	.	.	.	8cc\	-a	.	.
.	.	8a\J	.	8cc#X\J	.	8ee\J	.	.	.	.	.	.	.	8ee\	dif-	.	.
=37	=37	=37	=37	=37	=37	=37	=37	=37	=37	=37	=37	=37	=37	=37	=37	=37	=37
!	!	!	!	!	!	!	!	!LO:N:vis=00	!	!LO:N:vis=00	!	!	!	!	!	!	!
!	!	!	!	!	!	!	!	!	!	!	!	!LO:N:vis=00	!	!	!	!LO:N:vis=00	!LO:N:vis=00
.	.	8a\L	.	16dd\LL	.	16ff#\LL	.	0r	.	0r	.	0r	.	16ff#X\LL	-fu-	0r	0r
.	.	.	.	16ee\	.	16gg\	.	.	.	.	.	.	.	16gg\	.	.	.
.	.	8a\	.	16cc#X\	.	16ee\	.	.	.	.	.	.	.	16ee\	.	.	.
.	.	.	.	16ee\JJ	.	16gg\JJ	.	.	.	.	.	.	.	16gg\JJ	.	.	.
.	.	8a\	.	16dd\LL	.	16ff#\LL	.	.	.	.	.	.	.	(>16ff#\LL	-sa	.	.
.	.	.	.	16ee\	.	16gg\	.	.	.	.	.	.	.	16gg\)	.	.	.
.	.	8a\J	.	16cc#X\	.	16ee\	.	.	.	.	.	.	.	(>16ee\	eſt	.	.
.	.	.	.	16ee\JJ	.	16gg\JJ	.	.	.	.	.	.	.	16gg\JJ)	.	.	.
!	!	!	!	!LO:LB:g=original	!	!	!	!	!	!	!	!	!	!	!	!	!
=38	=38	=38	=38	=38	=38	=38	=38	=38	=38	=38	=38	=38	=38	=38	=38	=38	=38
!	!	!LO:TX:a:t=P:problem:mixed beam	!	!LO:TX:a:t=P:problem:mixed beam	!	!	!	!	!	!	!	!	!	!	!	!	!
.	.	8a\L	.	8dd\L	.	16ff#\LL	.	.	.	.	.	.	.	(>16ff#\LL	gra-	.	.
.	.	.	.	.	.	16ee\	.	.	.	.	.	.	.	16ee\JJ)	.	.	.
.	.	8A/J	.	16f#/L	.	16dd\	.	.	.	.	.	.	.	(>16dd\LL	-ti-	.	.
.	.	.	.	16e/JJ	.	16cc#X\JJ	.	.	.	.	.	.	.	16cc#X\JJ)	.	.	.
!	!	!	!	!	!	!	!	!	!	!	!	!	!	!LO:LB:g=original	!	!	!
.	.	8d/L	.	8f#/L	.	8dd\L	.	.	.	.	.	.	.	8dd\	-a	.	.
.	.	8B/J	.	8b/J	.	8gg\J	.	.	.	.	.	.	.	8gg\	dif-	.	.
!	!	!LO:LB:g=original	!	!	!	!	!	!	!	!	!	!	!	!	!	!	!
=39	=39	=39	=39	=39	=39	=39	=39	=39	=39	=39	=39	=39	=39	=39	=39	=39	=39
!LO:N:vis=0	!	!	!	!	!	!	!	!	!	!	!	!	!	!	!	!	!
1r	.	4G/	.	4b/	.	8gg\L	.	.	.	.	.	.	.	8gg\	-fu-	.	.
.	.	.	.	.	.	8dd\J	.	.	.	.	.	.	.	8dd\	-sa	.	.
.	.	8g\L	.	8b/L	.	8dd\L	.	.	.	.	.	.	.	8dd\L	eſt	.	.
.	.	8c\J	.	8g/J	.	16ee\L	.	.	.	.	.	.	.	16ee\L	.	.	.
.	.	.	.	.	.	16cc\JJ	.	.	.	.	.	.	.	16cc\JJ	.	.	.
=40	=40	=40	=40	=40	=40	=40	=40	=40	=40	=40	=40	=40	=40	=40	=40	=40	=40
.	.	8g\L	.	16b/LL	.	16dd\LL	.	.	.	.	.	.	.	(>16dd\LL	gra-	.	.
.	.	.	.	16a/	.	16cc\	.	.	.	.	.	.	.	16cc\JJ)	.	.	.
.	.	8a\	.	16g/	.	16b\	.	.	.	.	.	.	.	(>16b\LL	-ti-	.	.
.	.	.	.	16f#/JJ	.	16a\JJ	.	.	.	.	.	.	.	16a\JJ)	.	.	.
!	!	!	!	!	!	!LO:TX:a:t=P:problem:mixed beam	!	!	!	!	!	!	!	!	!	!	!
.	.	8b\	.	8g/L	.	8g/L	.	.	.	.	.	.	.	8g/	-a	.	.
.	.	8g\J	.	8a/J	.	8dd\J	.	.	.	.	.	.	.	8dd\	in	.	.
=41	=41	=41	=41	=41	=41	=41	=41	=41	=41	=41	=41	=41	=41	=41	=41	=41	=41
!	!	!LO:TX:a:t=P:problem:mixed beam	!	!	!	!	!	!	!	!	!	!	!	!	!	!	!
2r	.	8a\L	.	8g/L	.	8b\L	.	2r	.	2r	.	2r	.	8b\	la-	2r	2r
.	.	8c\	.	8g/	.	16ee\L	.	.	.	.	.	.	.	16ee\	-bi-	.	.
.	.	.	.	.	.	16a\JJ	.	.	.	.	.	.	.	16a\	-is	.	.
.	.	8d\	.	8g/	.	4a/	.	.	.	.	.	.	.	4a\	tu-	.	.
.	.	8D/J	.	8f#/J	.	.	.	.	.	.	.	.	.	.	.	.	.
=42	=42	=42	=42	=42	=42	=42	=42	=42	=42	=42	=42	=42	=42	=42	=42	=42	=42
!	!	!	!	!LO:TX:a:t=P:problem:mixed beam	!	!LO:TX:a:t=P:problem:mixed beam	!	!	!	!	!	!	!	!	!	!	!
!LO:TX:b:t=tutti	!	!	!	!	!	!	!	!	!	!	!	!	!	!	!	!	!
!	!	!	!	!	!LO:DY:b:t=forte	!	!LO:DY:b:t=forte	!	!	!	!	!	!	!	!	!	!
!	!	!	!	!	!	!	!	!	!	!	!	!	!	!LO:TX:a:i:t=Tut&colon;	!	!	!
!	!	!	!	!	!	!	!	!	!	!	!	!	!	!	!	!LO:TX:a:i:t=Tutti	!
!	!	!	!	!	!	!	!	!	!	!	!	!	!	!	!	!	!LO:TX:i:t=Tutti
4r	.	4G/	.	16g/LL	f	16g/LL	f	4r	.	4r	.	4r	.	4g/	-is	4r	4r
.	.	.	.	16gg\	.	16gg\	.	.	.	.	.	.	.	.	.	.	.
.	.	.	.	16ff#\	.	16ff#\	.	.	.	.	.	.	.	.	.	.	.
.	.	.	.	16ee\JJ	.	16ee\JJ	.	.	.	.	.	.	.	.	.	.	.
!	!	!LO:TX:b:i:t=Tutti	!	!	!	!	!	!	!	!	!	!LO:TX:a:i:t=Tutti	!	!	!	!	!
8r	.	8r	.	16dd\LL	.	16dd\LL	.	8r	.	8r	.	8r	.	8r	.	8r	8r
.	.	.	.	16gg\	.	16gg\	.	.	.	.	.	.	.	.	.	.	.
!	!	!	!LO:DY:a:t=Forte	!	!	!	!	!	!	!	!	!	!	!	!	!	!
8G\	.	8g\	f	16b\	.	16b\	.	8G\	Dif-	8d\	Dif-	8g\	Dif-	8gg\	Dif-	16gg\LL	16bb\LL
.	.	.	.	16dd\JJ	.	16dd\JJ	.	.	.	.	.	.	.	.	.	16aa\JJ	16ccc\JJ
!	!	!	!	!	!	!LO:LB:g=original	!	!	!	!	!	!	!	!	!	!	!
=43	=43	=43	=43	=43	=43	=43	=43	=43	=43	=43	=43	=43	=43	=43	=43	=43	=43
!	!	!	!	!LO:TX:b:i:t=tutti	!	!LO:TX:b:i:t=Tutti	!	!	!	!	!	!	!	!	!	!	!
4G\	.	8b\L	.	8gg\L	.	8gg\L	.	4G\	-fu-	4d\	-fu-	4b\	-fu-	8gg\	-fu-	8bb\L	8ddd\L
.	.	8b\	.	8dd\J	.	8gg\	.	.	.	.	.	.	.	8dd\	-sa	8gg\J	8bb\J
!LO:TX:a:t=P:problem:mixed beam	!	!	!	!	!	!	!	!	!	!	!	!	!	!	!	!	!
8G\L	.	8g\	.	8dd\L	.	8gg\	.	8G\	-sa	8B\	-sa	8g\	-sa	8dd\L	eſt	8bb\L	8ddd\L
!	!	!	!	!	!	!	!	!	!	!	!	!	!	!	!	!LO:TX:a:t=|:problem	!
8C/J	.	8e\J	.	16ee\L	.	8gg\J	.	8C/	eſt	8e\	eſt	8e\	eſt	16ee\L	.	16ccc\L	16eee\L
.	.	.	.	16cc\JJ	.	.	.	.	.	.	.	.	.	16cc\JJ	.	16aa\JJ	16ccc\JJ
=44	=44	=44	=44	=44	=44	=44	=44	=44	=44	=44	=44	=44	=44	=44	=44	=44	=44
8G\L	.	8g\L	.	16dd\LL	.	8gg\L	.	8G\	gra-	8.d\	gra-	8.g\	gra-	(>16dd\LL	gra-	16bb\LL	16ddd\LL
.	.	.	.	16cc\	.	.	.	.	.	.	.	.	.	16cc\JJ)	.	16aa\	16ccc\
8D\J	.	8f#\	.	16b\	.	8aa\	.	8D\	-ti-	.	.	.	.	(>16b\LL	-ti-	16gg\	16bb\
.	.	.	.	16a\JJ	.	.	.	.	.	16d\	-ti-	16f#\	-ti-	16a\JJ)	.	16dd\JJ	16aa\JJ
!	!	!	!	!	!	!	!	!	!	!	!	!	!	!LO:TX:a:i:t=Solo	!	!	!
!	!	!	!	!	!LO:DY:b:t=piano	!	!	!	!	!	!	!	!	!	!	!	!
8GG/	.	8g\	.	8g/L	p	8bb\	.	8GG/	-a	8d\	-a	8g\	-a	8g/	-a	8b/	8gg\
!	!	!	!LO:DY:b:t=piano	!	!	!	!	!	!	!	!	!	!	!	!	!	!
8r	.	8g\J	p	8b/J	.	8dd\J	.	8r	.	8r	.	8r	.	8dd\	in	8r	8r
=45	=45	=45	=45	=45	=45	=45	=45	=45	=45	=45	=45	=45	=45	=45	=45	=45	=45
!	!	!	!	!LO:TX:a:t=P:problem:mixed beam	!	!	!	!	!	!	!	!	!	!	!	!	!
!	!	!	!	!	!	!	!LO:DY:b:t=piano	!	!	!	!	!	!	!	!	!	!
2r	.	4c/	.	8cc\L	.	8ee\L	p	2r	.	2r	.	2r	.	8ee\L	la-	2r	2r
.	.	.	.	8e/J	.	16cc\L	.	.	.	.	.	.	.	16cc\L	.	.	.
.	.	.	.	.	.	16b\JJ	.	.	.	.	.	.	.	16b\JJ	.	.	.
.	.	8c/L	.	8a/L	.	8cc\L	.	.	.	.	.	.	.	8cc\	.	.	.
.	.	8c/J	.	16f#/L	.	16a\L	.	.	.	.	.	.	.	16a\	-bi-	.	.
.	.	.	.	16e/JJ	.	16g\JJ	.	.	.	.	.	.	.	16g/	-is	.	.
!	!	!	!	!	!	!	!	!	!	!	!	!	!	!LO:LB:g=original	!	!	!
=46	=46	=46	=46	=46	=46	=46	=46	=46	=46	=46	=46	=46	=46	=46	=46	=46	=46
!	!	!	!	!LO:TX:a:t=P:problem:mixed beam	!	!LO:TX:a:t=P:problem:mixed beam	!	!	!	!	!	!	!	!	!	!	!
4r	.	4d\	.	16d/LL	.	16f#/LL	.	4r	.	4r	.	4r	.	8f#/	tu-	4r	4r
!	!	!	!	!	!LO:DY:b:t=forte	!	!LO:DY:b:t=forte	!	!	!	!	!	!	!	!	!	!
.	.	.	.	16dd\	f	16dd\	f	.	.	.	.	.	.	.	.	.	.
!	!	!	!	!	!	!	!	!	!	!	!	!	!	!LO:TX:a:i:t=Tut&colon;	!	!	!
.	.	.	.	16ee\	.	16ee\	.	.	.	.	.	.	.	8d/	-is	.	.
.	.	.	.	16ff#\JJ	.	16ff#\JJ	.	.	.	.	.	.	.	.	.	.	.
!	!	!	!	!LO:LB:g=original	!	!	!	!	!	!	!	!	!	!	!	!	!
8r	.	8r	.	16gg\LL	.	16gg\LL	.	8r	.	8r	.	8r	.	8r	.	8r	8r
.	.	.	.	16dd\	.	16dd\	.	.	.	.	.	.	.	.	.	.	.
!	!	!	!LO:DY:b:t=forte	!	!	!	!	!	!	!	!	!	!	!	!	!	!
8G\	.	8g\	f	16b\	.	16b\	.	8G\	dif-	8d\	Dif-	8g\	dif-	8gg\	dif-	16gg\LL	16bb\LL
.	.	.	.	16dd\JJ	.	16dd\JJ	.	.	.	.	.	.	.	.	.	16aa\JJ	16ccc\JJ
=47	=47	=47	=47	=47	=47	=47	=47	=47	=47	=47	=47	=47	=47	=47	=47	=47	=47
!	!	!	!	!	!	!	!	!	!	!	!	!	!	!	!	!LO:N:vis=16	!
4G\	.	8b\L	.	8gg\L	.	8gg\L	.	4G\	-fu-	4d\	-fu-	4b\	-fu-	8gg\	-fu-	8bb\L	8ddd\L
!	!	!	!	!	!	!	!	!	!	!	!	!	!	!	!	!LO:N:vis=16	!
.	.	8b\J	.	8dd\J	.	8gg\	.	.	.	.	.	.	.	8dd\	-sa	8gg\J	8bb\J
!LO:TX:a:t=P:problem:mixed beam	!	!	!	!	!	!	!	!	!	!	!	!	!	!	!	!	!
8G\L	.	8g\L	.	8dd\L	.	8gg\	.	8G\	-sa	8B\	-sa	8g\	-sa	8dd\L	eſt	8bb\L	8ddd\L
8C/J	.	8e\J	.	16ee\L	.	8gg\J	.	8C/	eſt	8e\	eſt	8e\	eſt	16ee\L	.	16ccc\L	16eee\L
!	!	!	!	!	!	!	!	!	!	!	!	!	!	!	!	!LO:SIC:s=ee	!
.	.	.	.	16cc\JJ	.	.	.	.	.	.	.	.	.	16cc\JJ	.	16bb\JJ	16ccc\JJ
!	!	!	!	!	!	!	!	!	!	!	!	!	!	!	!	!LO:LB:g=original	!
=48	=48	=48	=48	=48	=48	=48	=48	=48	=48	=48	=48	=48	=48	=48	=48	=48	=48
!	!	!	!	!	!	!	!	!	!	!	!	!LO:N:vis=4.	!	!	!	!	!
8G\L	.	8.g\L	.	16dd\LL	.	8gg\L	.	8G\	gra-	8.d\	gra-	8.g\	gra-	(>16dd\LL	gra-	16bb\LL	16ddd\LL
.	.	.	.	16cc\	.	.	.	.	.	.	.	.	.	16cc\JJ)	.	16aa\	16ccc\
8A\	x 6	.	.	16b\	.	16gg\L	.	8A\	-ti-	.	.	.	.	(>16b\LL	-ti-	16gg\	16bb\
!	!	!	!	!	!	!	!	!	!	!	!	!LO:N:vis=8	!	!	!	!	!
.	.	16g\Jk	.	16a\JJ	.	16ff#\JJ	.	.	.	16d\	-ti-	16g\	-ti-	16a\JJ)	.	16dd\JJ	16aa\JJ
!	!	!	!	!LO:TX:a:t=P:problem:mixed beam	!	!	!	!	!	!	!	!	!	!	!	!LO:TX:a:t=P:problem:mixed beam	!
!	!	!	!	!	!	!	!	!LO:LB:g=original	!	!LO:LB:g=original	!	!	!	!	!	!	!
8B\	x 6	8d\L	.	8g/L	.	8gg\L	.	8B\	-a	8d\	-a	8d\	-a	8g/	-a	8b/L	8gg\L
8G\J	.	8g\J	.	8dd\J	.	8bb\J	.	8G\	in	8B\	in	8g\	in	8dd\	in	8bb\J	8ddd\J
!LO:LB:g=original	!	!	!	!	!	!	!	!	!	!	!	!	!	!	!	!	!
!	!	!	!	!	!	!	!	!	!	!	!	!LO:LB:g=original	!	!	!	!	!
!	!	!	!	!	!	!	!	!	!	!	!	!	!	!	!	!	!LO:LB:g=original
=49	=49	=49	=49	=49	=49	=49	=49	=49	=49	=49	=49	=49	=49	=49	=49	=49	=49
8c\L	.	8g\L	.	8ee\L	.	8ee\L	.	8c\L	la-	4c\	la-	4g\	la-	8ee\L	la-	8gg\L	8eee\L
8A\J	.	8g\	.	8aa\J	.	16ccc\L	.	8A\J	.	.	.	.	.	16cc\L	.	8aa\J	8ccc\J
.	.	.	.	.	.	16bb\JJ	.	.	.	.	.	.	.	16b\JJ	.	.	.
8F#\L	6 5	8a\	.	8aa\L	.	16ccc\LL	.	8F#\	-bi-	8d\	-bi-	8a\	-bi-	8cc\	.	16aa\LL	16ccc\LL
.	.	.	.	.	.	16aa\	.	.	.	.	.	.	.	.	.	16bb\	16ddd\
8G\J	.	8g\J	.	16cc\L	.	16aa\	.	8G\	-is	8d\	-is	8g\	-is	16a\	-bi-	16aa\	16ccc\
.	.	.	.	16b\JJ	.	16gg\JJ	.	.	.	.	.	.	.	16g/	-is	16gg\JJ	16bb\JJ
=50	=50	=50	=50	=50	=50	=50	=50	=50	=50	=50	=50	=50	=50	=50	=50	=50	=50
!LO:TX:a:t=P:problem:mixed beam	!	!	!	!	!	!	!	!	!	!	!	!	!	!	!	!	!
8D/L	.	8a\L	.	16a\LL	.	16ff#\LL	.	8D/	tu-	8d\	tu-	8a\	tu-	8f#/	tu-	8dd/L	8aa\L
.	.	.	.	16a\	.	16dd\	.	.	.	.	.	.	.	.	.	.	.
16d\L	.	16f#\L	.	16b\	.	16ee\	.	8D/	-is	8d\	-is	8a\	-is	8d/	-is	8dd/J	8aa\J
16c\JJ	.	16e\JJ	.	16cc\JJ	.	16ff#\JJ	.	.	.	.	.	.	.	.	.	.	.
!	!	!LO:TX:a:t=P:problem:mixed beam	!	!LO:TX:a:t=P:problem:mixed beam	!	!LO:TX:a:t=P:problem:mixed beam	!	!	!	!	!	!	!	!	!	!	!
8B\L	X 6	8d\L	.	8dd\L	.	8gg\L	.	4r	.	8r	.	4r	.	8r	.	4r	4r
8G\J	.	8G/J	.	8G/J	.	8G/J	.	.	.	8B\	dif-	.	.	8dd\	dif-	.	.
!	!	!LO:LB:g=original	!	!	!	!	!	!	!	!	!	!	!	!	!	!	!
=51	=51	=51	=51	=51	=51	=51	=51	=51	=51	=51	=51	=51	=51	=51	=51	=51	=51
!	!	!LO:TX:a:t=P:problem:mixed beam	!	!	!	!	!	!	!	!	!	!	!	!	!	!	!
4r	.	8G/L	.	8G/L	.	8G/L	.	4r	.	16c\LL	-fu-	4r	.	16ee\LL	-fu-	4r	4r
.	.	.	.	.	.	.	.	.	.	16d\	.	.	.	16ffn\	.	.	.
.	.	8G/	.	8G/J	.	8G/J	.	.	.	16B\	.	.	.	16dd\	.	.	.
.	.	.	.	.	.	.	.	.	.	16d\JJ	.	.	.	16ff\JJ	.	.	.
!	!	!	!	!LO:TX:a:t=P:problem:mixed beam	!	!LO:TX:a:t=P:problem:mixed beam	!	!	!	!	!	!	!	!	!	!	!
8r	.	8G/	.	16G/LL	.	16G/LL	.	8r	.	(>16c\LL	-sa	8r	.	(>16ee\LL	-sa	8r	8r
.	.	.	.	16dd\	.	16gg\	.	.	.	16d\JJ)	.	.	.	16ffn\)	.	.	.
8G\	X 7-	8g\J	.	16dd\	.	16gg\	.	8G\	dif-	(>16B\LL	dif-	8g\	dif-	(>16dd\	Dif-	8g/	8g/
.	.	.	.	16dd/JJ	.	16gg\JJ	.	.	.	16d\JJ)	.	.	.	16ffn\JJ)	.	.	.
=52	=52	=52	=52	=52	=52	=52	=52	=52	=52	=52	=52	=52	=52	=52	=52	=52	=52
!	!	!LO:TX:a:t=P:problem:mixed beam	!	!	!	!	!	!	!	!	!	!	!	!	!	!	!
8c\L	.	8g\L	.	16ee\LL	.	16gg\LL	.	8c\	-fu-	8c\	-fu-	8g\	-fu-	(>16ee\LL	-fu-	8g/L	8g/L
.	.	.	.	16dd\	.	16gg\	.	.	.	.	.	.	.	16dd\JJ)	.	.	.
8G\J	.	8g\	.	16cc\	.	16gg\	.	8G\	-sa	8d\	-sa	8g\	-sa	(>16cc\LL	-sa	16g/L	16g/L
.	.	.	.	16b\JJ	.	16gg\JJ	.	.	.	.	.	.	.	16b\JJ)	.	16g/JJ	16g/JJ
!	!	!	!	!	!	!LO:LB:g=original	!	!	!	!	!	!	!	!	!	!	!
!	!	!	!	!LO:TX:a:t=P:problem:mixed beam	!	!LO:TX:a:t=P:problem:mixed beam	!	!	!	!	!	!	!	!	!	!	!
8C/	.	8e\	.	8cc\L	.	8gg\L	.	8C/	eſt	8e\	eſt	8e\	eſt	8cc\	eſt	8g/	8g/
8r	.	8A/J	.	8A/J	.	8A/J	.	8r	.	8c#X\	dif-	8e\	dif-	8r	.	8r	8r
!	!	!	!	!	!	!	!	!	!	!	!	!	!	!LO:LB:g=original	!	!	!
=53	=53	=53	=53	=53	=53	=53	=53	=53	=53	=53	=53	=53	=53	=53	=53	=53	=53
!	!	!LO:TX:a:t=P:problem:mixed beam	!	!	!	!	!	!	!	!	!	!	!	!	!	!	!
4r	.	8A/L	.	8A/L	.	8A/L	.	4r	.	16d\LL	-fu-	16f#\LL	-fu-	4r	.	4r	4r
.	.	.	.	.	.	.	.	.	.	16e\	.	16g\	.	.	.	.	.
.	.	8A/	.	8A/J	.	8A/J	.	.	.	16c#X\	.	16e\	.	.	.	.	.
.	.	.	.	.	.	.	.	.	.	16e\JJ	.	16g\JJ	.	.	.	.	.
!	!	!	!	!LO:TX:a:t=P:problem:mixed beam	!	!LO:TX:a:t=P:problem:mixed beam	!	!	!	!	!	!	!	!	!	!	!
8r	.	8A/	.	16A/LL	.	16A/LL	.	8r	.	(>16d\LL	-sa	(>16f#\LL	-sa	8r	.	8r	8r
.	.	.	.	16cc#X\	.	16aa\	.	.	.	16e\JJ)	.	16g\JJ)	.	.	.	.	.
8A\	7 #	8g\J	.	16cc#\	.	16aa/	.	8A\	dif-	(>16c#\LL	dif-	(>16e\LL	eſt	8cc#X\	dif-	8aa\	8aa\
.	.	.	.	16cc#\JJ	.	16aa\JJ	.	.	.	16e\JJ)	.	16g\JJ)	.	.	.	.	.
=54	=54	=54	=54	=54	=54	=54	=54	=54	=54	=54	=54	=54	=54	=54	=54	=54	=54
8d\L	.	16f#\LL	.	8dd\L	.	16aa\LL	.	8d\	-fu-	8d\	-fu-	(16f#\LL	gra-	8dd\	-fu-	16aa\LL	16aa\LL
.	.	16e\	.	.	.	16aa\	.	.	.	.	.	16e\JJ)	.	.	.	16aa\	16aa\
8A\J	X #	16d\	.	8ee\J	.	16aa\	.	8A\	-sa	8c#X\	-sa	(16d\LL	-ti-	8ee\	-sa	16aa\	16aa\
.	.	16c#X\JJ	.	.	.	16aa\JJ	.	.	.	.	.	16c#X\JJ)	.	.	.	16aa\JJ	16aa\JJ
!LO:TX:a:t=P:problem:mixed beam	!	!	!	!	!	!	!	!	!	!	!	!	!	!	!	!	!
8D/L	.	8d\L	.	8ff#\L	.	8aa\L	.	8D/	eſt	8A,/	eſt	8d\	-a	8ff#\	eſt	8aa\L	8aa\L
*	*	*	*	*	*	*	*	*	*ij	*	*	*	*	*	*	*	*
8G\J	.	8b\J	.	8gg\J	.	8gg\J	.	8G\	dif-	8B\	dif-	8b\	dif-	8gg\	dif-	16gg\L	16bb\L
.	.	.	.	.	.	.	.	.	.	.	.	.	.	.	.	16aa\JJ	16ccc\JJ
!	!	!	!	!LO:LB:g=original	!	!	!	!	!	!LO:LB:g=original	!	!	!	!	!	!	!
=55	=55	=55	=55	=55	=55	=55	=55	=55	=55	=55	=55	=55	=55	=55	=55	=55	=55
!LO:TX:a:t=P:problem:mixed beam	!	!	!	!	!	!	!	!	!	!	!	!	!	!	!	!	!
8G\L	.	8b\L	.	8gg\L	.	16gg\LL	.	4G\	-fu-	4d\	-fu-	4b\	-fu-	8gg\	-fu-	8bb\L	8ddd\L
.	.	.	.	.	.	16dd\	.	.	.	.	.	.	.	.	.	.	.
8GG/J	.	8b\	.	8dd\J	.	16b\	.	.	.	.	.	.	.	8dd\	-sa	8gg\J	8bb\J
.	.	.	.	.	.	16dd\JJ	.	.	.	.	.	.	.	.	.	.	.
!LO:TX:a:t=P:problem:mixed beam	!	!	!	!	!	!LO:TX:a:t=P:problem:mixed beam	!	!	!	!	!	!	!	!	!	!	!
8G\L	.	8g\	.	8dd\L	.	16g/LL	.	8G\	-sa	8B\	-sa	8g\	-sa	8dd\L	eſt	8bb\L	8ddd\L
.	.	.	.	.	.	16dd\	.	.	.	.	.	.	.	.	.	.	.
8C/J	.	8e\J	.	16ee\L	.	16ee\	.	8C/	eſt	8G/	eſt	8e\	dif-	16ee\L	.	16ccc\L	16eee\L
*	*	*	*	*	*	*	*	*	*Xij	*	*	*	*	*	*	*	*
.	.	.	.	16cc\JJ	.	16cc\JJ	.	.	.	.	.	.	.	16cc\JJ	.	16aa\JJ	16ccc\JJ
!	!	!	!	!	!	!	!	!LO:LB:g=original	!	!	!	!	!	!	!	!	!
=56	=56	=56	=56	=56	=56	=56	=56	=56	=56	=56	=56	=56	=56	=56	=56	=56	=56
8G\L	.	8B/L	.	16dd\LL	.	16dd\LL	.	8G\	gra-	(>16B\LL	gra-	8.B/	-fu-	(>16dd\LL	gra-	16bb\LL	16ddd\LL
.	.	.	.	16cc\	.	16cc\	.	.	.	16A\JJ)	.	.	.	16cc\JJ)	.	16aa\	16ccc\
8A\	X 6	8c/J	.	16b\	.	16b\	.	8A\	-ti-	(<16G/LL	-ti-	.	.	(>16b\LL	-ti-	16gg\	16bb\
.	.	.	.	16a\JJ	.	16a\JJ	.	.	.	16F#/JJ)	.	16c/	-sa	16a\JJ)	.	16dd\JJ	16aa\JJ
!	!	!	!	!LO:TX:a:t=P:problem:mixed beam	!	!LO:TX:a:t=P:problem:mixed beam	!	!	!	!	!	!	!	!	!	!LO:TX:a:t=P:problem:mixed beam	!
!	!	!	!	!	!	!	!	!	!	!	!	!LO:LB:g=original	!	!	!	!	!
8B\	X 6	8d\L	.	8g/L	.	8g/L	.	8B\	-a	8G/	-a	8d\	eſt	8g/	-a	8b/L	8gg\L
8D\J	X 6	8a\J	.	8dd\J	.	8gg\J	.	8F#\	in	8G/	in	8a\	in	8dd\	in	8aa\J	8ddd\J
=57	=57	=57	=57	=57	=57	=57	=57	=57	=57	=57	=57	=57	=57	=57	=57	=57	=57
!LO:TX:a:t=P:problem:mixed beam	!	!	!	!	!	!	!	!	!	!	!	!	!	!	!	!LO:TX:a:t=P:problem:mixed beam	!
8G\L	.	8g\L	.	8b\L	.	16gg\LL	.	8G\	la-	8d\	la-	8g\	la-	8b\	la-	8gg\L	8bb\L
.	.	.	.	.	.	16gg\	.	.	.	.	.	.	.	.	.	.	.
8C\	6 5	16a\L	.	16ee\L	.	16aa\	.	16E\	-bi-	16d\	-bi-	16a\	-bi-	16ee\	-bi-	8dd/J	8aa\J
.	.	16g\JJ	.	16a\JJ	.	16aa\JJ	.	16C/	-is	16e\	-is	16g\	-is	16a\	-is	.	.
!	!	!	!	!	!	!	!	!	!	!	!	!	!	!	!	!LO:LB:g=original	!
8D\	X 4	8g\L	.	8a\L	.	16aa\LL	.	4D/	tu-	4d\	tu-	(>8g\L	tu-	4a\	tu-	16dd/LL	8.aa\L
.	.	.	.	.	.	16aa\	.	.	.	.	.	.	.	.	.	16b/	.
8DD/J	X 3	8f#\J	.	8dd\J	.	16aa\	.	.	.	.	.	8f#\J)	.	.	.	16g/	.
.	.	.	.	.	.	16aa\JJ	.	.	.	.	.	.	.	.	.	16dd/JJ	16gg\Jk
!	!	!	!	!	!	!	!	!	!	!	!	!	!	!	!	!	!LO:LB:g=original
=58	=58	=58	=58	=58	=58	=58	=58	=58	=58	=58	=58	=58	=58	=58	=58	=58	=58
!LO:TX:a:t=P:problem:mixed beam	!	!	!	!	!	!	!	!	!	!	!	!	!	!	!	!	!LO:TX:a:t=P:problem:mixed beam
8GG/L	.	4g\	.	16dd\LL	.	16bb\LL	.	4GG/	-is	4d\	-is	4g\	-is	4g/	-is	4b/	8gg\L
.	.	.	.	16dd\	.	16gg\	.	.	.	.	.	.	.	.	.	.	.
8G\	.	.	.	16b\	.	16dd\	.	.	.	.	.	.	.	.	.	.	16g/L
.	.	.	.	16dd\JJ	.	16b\JJ	.	.	.	.	.	.	.	.	.	.	16g/JJ
8B\	.	8r	.	16g\LL	.	16g\LL	.	8r	.	8r	.	8r	.	8r	.	4r	16g/LL
.	.	.	.	16b\	.	16b\	.	.	.	.	.	.	.	.	.	.	16g/
8G\J	.	8g\	.	16dd\	.	16dd\	.	8G\	dif-	8B\	dif-	8g\	dif-	8dd\	dif-	.	16g/
.	.	.	.	16gg\JJ	.	16gg\JJ	.	.	.	.	.	.	.	.	.	.	16g/JJ
!LO:LB:g=original	!	!	!	!	!	!	!	!	!	!	!	!	!	!	!	!	!
=59	=59	=59	=59	=59	=59	=59	=59	=59	=59	=59	=59	=59	=59	=59	=59	=59	=59
8c\L	.	8g\L	.	8ee\L	.	16gg\LL	.	4G\	-fu-	16c\LL	-fu-	4g\	-fu-	16ee\LL	-fu-	8g/L	8g/L
.	.	.	.	.	.	16gg\	.	.	.	16d\	.	.	.	16ffn\	.	.	.
8G\J	X 7-	8g\	.	8dd\J	.	16gg\	.	.	.	16B\	.	.	.	16dd\	.	16g/L	16g/L
.	.	.	.	.	.	16gg\JJ	.	.	.	16d\JJ	.	.	.	16ffn\JJ	.	16g/JJ	16g/JJ
!LO:TX:a:t=P:problem:mixed beam	!	!	!	!	!	!	!	!	!	!	!	!	!	!	!	!	!
8C/L	.	8e\	.	8ee\L	.	16gg\LL	.	8G\	-sa	(>16c\LL	-sa	8g\	-sa	(>16ee\LL	-sa	16g/LL	16g/LL
.	.	.	.	.	.	16gg\	.	.	.	16d\JJ)	.	.	.	16ffn\JJ)	.	16g/	16g/
8G\J	X 7-	8g\J	.	8dd\J	.	16gg\	.	8G\	dif-	(>16B\LL	dif-	8g\	dif-	(>16dd\LL	dif-	16g/	16g/
.	.	.	.	.	.	16gg\JJ	.	.	.	16d\JJ)	.	.	.	16ffn\JJ)	.	16g/JJ	16g/JJ
=60	=60	=60	=60	=60	=60	=60	=60	=60	=60	=60	=60	=60	=60	=60	=60	=60	=60
8c\L	.	8e\L	.	16ee\LL	.	16gg\LL	.	8c\	-fu-	8c\	-fu-	8g\	-fu-	(>16ee\LL	-fu-	16g/LL	16g/LL
.	.	.	.	16dd\	.	16gg\	.	.	.	.	.	.	.	16dd\JJ)	.	16g/	16g/
8G\J	.	8g\	.	16cc\	.	16gg\	.	8G\	-sa	8d\	-sa	8g\	-sa	(>16cc\LL	-sa	16g/	16g/
.	.	.	.	16b\JJ	.	16gg\JJ	.	.	.	.	.	.	.	16b\JJ)	.	16g/JJ	16g/JJ
!LO:TX:a:t=P:problem:mixed beam	!	!	!	!	!	!	!	!	!	!	!	!	!	!	!	!LO:TX:a:t=P:problem:mixed beam	!LO:TX:a:t=P:problem:mixed beam
!	!	!	!	!	!	!LO:LB:g=original	!	!	!	!	!	!	!	!	!	!	!
8C/L	.	8e\	.	8cc\L	.	16gg\LL	.	8C/	eſt	8e\	eſt	8e\	eſt	8cc\	eſt	8g/L	8g\L
.	.	.	.	.	.	16aa\	.	.	.	.	.	.	.	.	.	.	.
8A\J	X #	8e\J	.	8cc#X\J	.	16aa\	.	8A\	di-	8A/	dif-	8e\	dif-	8cc#X\	dif-	8aa\J	8aa/J
.	.	.	.	.	.	16aa\JJ	.	.	.	.	.	.	.	.	.	.	.
=61	=61	=61	=61	=61	=61	=61	=61	=61	=61	=61	=61	=61	=61	=61	=61	=61	=61
8d\L	.	8f#\L	.	8dd\L	.	16aa\LL	.	4A\	-fu-	4A/	-fu-	16f#\LL	-fu-	16dd\LL	-fu-	16aa\LL	8aa\L
.	.	.	.	.	.	16aa\	.	.	.	.	.	16g\	.	16ee\	.	16aa\	.
8A\J	7 #	8e\	.	8cc#X\	.	16aa\	.	.	.	.	.	16e\	.	16cc#X\	.	16aa\	16aa\L
.	.	.	.	.	.	16aa\JJ	.	.	.	.	.	16g\JJ	.	16ee\JJ	.	16aa\JJ	16aa\JJ
!LO:TX:a:t=P:problem:mixed beam	!	!	!	!	!	!	!	!	!	!	!	!	!	!	!	!	!
8D/L	.	8f#\	.	8dd\	.	16aa\LL	.	8A,\	-sa	8A/	-sa	(>16f#\LL	-sa	(>16dd\LL	-sa	16aa\LL	16aa\LL
.	.	.	.	.	.	16aa\	.	.	.	.	.	16g\JJ)	.	16ee\JJ)	.	16aa\	16aa\
!	!	!	!	!	!	!	!	!	!	!LO:LB:g=original	!	!	!	!	!	!	!
8A\J	7 #	8e\J	.	8cc#X\J	.	16aa\	.	8A\	dif-	8A/	dif-	(>16e\LL	dif-	(>16cc#X\LL	dif-	16aa\	16aa\
.	.	.	.	.	.	16aa\JJ	.	.	.	.	.	16g\JJ)	.	16ee\JJ)	.	16aa\JJ	16aa\JJ
=62	=62	=62	=62	=62	=62	=62	=62	=62	=62	=62	=62	=62	=62	=62	=62	=62	=62
8d\L	.	8f#\L	.	8dd\L	.	16aa\LL	.	8d\	-fu-	8A/	-fu-	8f#\	-fu-	8dd\	-fu-	8aa\L	16aa\LL
.	.	.	.	.	.	16aa\	.	.	.	.	.	.	.	.	.	.	16aa\
8A\J	X #	8a\	.	8ee\	.	16aa\	.	8A\	-sa	8c#X\	-sa	8a\	-sa	8ee\	-sa	16aa\L	16aa\
.	.	.	.	.	.	16aa\JJ	.	.	.	.	.	.	.	.	.	16aa\JJ	16aa\JJ
!LO:TX:a:t=P:problem:mixed beam	!	!	!	!	!	!	!	!	!	!	!	!	!	!	!	!	!
8D/L	.	8a\	.	8ff#\	.	16ff#\LL	.	8D/	eſt	8d\	eſt	8a\	eſt	8ff#\	eſt	8aa\	8aa\
.	.	.	.	.	.	16ff#\	.	.	.	.	.	.	.	.	.	.	.
8G\J	.	8b\J	.	8gg\J	.	16gg\	.	8G\	dif-	8d\	dif-	8b\	dif-	8gg\	dif-	8r	8r
.	.	.	.	.	.	16gg\JJ	.	.	.	.	.	.	.	.	.	.	.
!	!	!	!	!	!	!	!	!LO:TX:a:t=vi	!	!	!	!	!	!	!	!	!
!	!	!LO:LB:g=original	!	!	!	!	!	!	!	!	!	!	!	!	!	!	!
!	!	!	!	!	!	!	!	!LO:LB:g=original	!	!	!	!	!	!	!	!	!
!	!	!	!	!	!	!	!	!	!	!	!	!LO:LB:g=original	!	!	!	!	!
=63	=63	=63	=63	=63	=63	=63	=63	=63	=63	=63	=63	=63	=63	=63	=63	=63	=63
!	!	!	!	!	!	!	!	!LO:TX:a:t=de	!	!	!	!	!	!	!	!	!
8c\L	6: 4: 2:	4a\	.	16ff#\LL	.	16aa\LL	.	8c\L	-fu-	4d\	-fu-	4a\	-fu-	4ff#\	-fu-	8dd/L	8dd/L
.	.	.	.	16ff#\	.	16aa\	.	.	.	.	.	.	.	.	.	.	.
8A\	.	.	.	16ff#\	.	16aa\	.	8A\J	.	.	.	.	.	.	.	16dd/L	16dd/L
.	.	.	.	16ff#\JJ	.	16aa\JJ	.	.	.	.	.	.	.	.	.	16dd/JJ	16dd/JJ
8F#\	.	8a\L	.	16ff#\LL	.	16aa\LL	.	8F#\	-sa	8d\	-sa	8a\	-sa	(>16ff#\LL	-sa	16dd/LL	16dd/LL
.	.	.	.	16ff#\	.	16aa\	.	.	.	.	.	.	.	16gg\JJ)	.	16dd/	16dd/
8D\J	.	8a\J	.	16ff#\	.	16aa\	.	8D/	eſt	8d\	eſt	8a\	eſt	(>16ff#\LL	eſt	16dd/	16dd/
.	.	.	.	16ff#\JJ	.	16aa\JJ	.	.	.	.	.	.	.	16ee\JJ)	.	16dd/JJ	16dd/JJ
!	!	!	!	!	!	!	!	!LO:TX:b:t=Re	!	!	!	!	!	!	!	!	!
!	!	!	!	!LO:LB:g=original	!	!	!	!	!	!	!	!	!	!	!	!	!
=64	=64	=64	=64	=64	=64	=64	=64	=64	=64	=64	=64	=64	=64	=64	=64	=64	=64
!	!	!	!	!	!	!	!	!LO:TX:a:t=P:problem:w źródle ten takt zapisany u dołu strony	!	!	!	!	!	!	!	!	!
!	!	!	!	!LO:TX:a:t=P:problem:mixed beam	!	!LO:TX:a:t=P:problem:mixed beam	!	!LO:TX:b:t=ro	!	!	!	!	!	!	!	!	!
8c\L	.	8.f#\L	.	16ff#\LL	.	16aa\LL	.	8c\	gra-	8.A/	gra-	8.f#\	gra-	8.dd\	gra-	16dd/LL	16dd/LL
.	.	.	.	16f#/	.	16a/	.	.	.	.	.	.	.	.	.	16dd/	16dd/
8A\	.	.	.	16f#/	.	16a/	.	8A\	-ti-	.	.	.	.	.	.	16dd/	16dd/
.	.	16f#\Jk	.	16f#/JJ	.	16a/JJ	.	.	.	16A/	-ti-	16f#\	-ti-	16dd\	-ti-	16dd/JJ	16dd/JJ
!	!	!	!	!LO:TX:a:t=P:problem:mixed beam	!	!LO:TX:a:t=P:problem:mixed beam	!	!	!	!	!	!	!	!	!	!LO:TX:a:t=P:problem:mixed beam	!LO:TX:a:t=P:problem:mixed beam
8F#\	.	8f#\L	.	16f#/LL	.	16a/LL	.	8F#\	-a	8A/	-a	8f#\	-a	8dd\	-a	8dd/L	8dd/L
.	.	.	.	16ff#\	.	16aa\	.	.	.	.	.	.	.	.	.	.	.
8D\J	.	8a\J	.	16ff#\	.	16aa\	.	8D/	in	8d\	in	8a\	in	8cc\	in	8aa\J	8ddd\J
.	.	.	.	16ff#\JJ	.	16aa\JJ	.	.	.	.	.	.	.	.	.	.	.
=65	=65	=65	=65	=65	=65	=65	=65	=65	=65	=65	=65	=65	=65	=65	=65	=65	=65
!LO:TX:a:t=P:problem:mixed beam	!	!	!	!	!	!	!	!	!	!	!	!	!	!	!	!	!
8G\L	.	8g\L	.	16gg\LL	.	16bb\LL	.	8G\	la-	8d\	la-	8g\	la-	8b\	la-	8gg\L	8bb\L
.	X 6	.	.	16gg\	.	16aa\	.	.	.	.	.	.	.	.	.	.	.
8C/J	X 5	16a\L	.	16gg\	.	16aa\	.	16E\	-bi-	16d\	-bi-	16a\	-bi-	16ee\	-bi-	16aa\L	16ccc\L
.	.	16g\JJ	.	16gg\JJ	.	16aa\JJ	.	16C/	-is	16e\	-is	16g\	-is	16a\	-is	16dd\JJ	16aa\JJ
!	!	!	!	!	!	!	!	!	!	!	!	!	!	!	!	!LO:TX:a:t=P:problem:mixed beam	!
8D/L	x 4	8g\L	.	16gg\LL	.	16aa\LL	.	4D/	tu-	(>8d\L	tu-	8g\L	tu-	4a\	tu-	8gg/L	8bb\L
.	.	.	.	16dd\	.	16aa\	.	.	.	.	.	.	.	.	.	.	.
8DD/J	X 3	8f#\J	.	16dd\	.	16aa\	.	.	.	8c\J)	.	8f#\J	.	.	.	8dd/J	8aa\J
.	.	.	.	16dd\JJ	.	16aa\JJ	.	.	.	.	.	.	.	.	.	.	.
!	!	!	!	!	!	!	!	!	!	!	!	!	!	!	!	!LO:LB:g=original	!LO:LB:g=original
=66	=66	=66	=66	=66	=66	=66	=66	=66	=66	=66	=66	=66	=66	=66	=66	=66	=66
!LO:TX:a:t=P:problem:mixed beam	!	!	!	!	!	!	!	!	!	!	!	!	!	!	!	!	!LO:TX:a:t=P:problem:mixed beam
8GG/L	.	4g\	.	16dd\LL	.	16bb\LL	.	4G\	-is	4B\	-is	4g\	-is	4g/	-is	8b/L	8gg\L
.	.	.	.	16dd\	.	16gg\	.	.	.	.	.	.	.	.	.	.	.
16G\L	.	.	.	16b\	.	16dd\	.	.	.	.	.	.	.	.	.	16dd/L	16dd/L
16A\JJ	.	.	.	16dd\JJ	.	16b\JJ	.	.	.	.	.	.	.	.	.	16dd/JJ	16dd/JJ
8B\L	.	8r	.	16g\LL	.	16g\LL	.	8r	.	8r	.	8r	.	8r	.	16dd/LL	16dd/LL
.	.	.	.	16b\	.	16b\	.	.	.	.	.	.	.	.	.	16dd/	16dd/
8G\J	.	8b\	.	16dd\	.	16dd\	.	8G\	dif-	8d\	dif-	8b\	dif-	8gg\	dif-	16dd/	16dd/
.	.	.	.	16gg\JJ	.	16gg\JJ	.	.	.	.	.	.	.	.	.	16dd/JJ	16dd/JJ
!	!	!	!	!	!	!	!	!	!	!	!	!	!	!LO:LB:g=original	!	!	!
=67	=67	=67	=67	=67	=67	=67	=67	=67	=67	=67	=67	=67	=67	=67	=67	=67	=67
8c\L	8: 4: 2:	4a\	.	16ff#\LL	.	16aa\LL	.	8c\L	-fu-	4d\	-fu-	4a\	-fu-	4ff#\	-fu-	16dd/LL	16dd/LL
.	.	.	.	16ff#\	.	16aa\	.	.	.	.	.	.	.	.	.	16dd/	16dd/
8A\	.	.	.	16ff#\	.	16aa\	.	8A\J	.	.	.	.	.	.	.	16dd/	16dd/
.	.	.	.	16ff#\JJ	.	16aa\JJ	.	.	.	.	.	.	.	.	.	16dd/JJ	16dd/JJ
8F#\	.	8a\L	.	16ff#\LL	.	16aa\LL	.	8F#\	-sa	8d\	-sa	(>16a\LL	-sa	(>16ff#\LL	-sa	16dd/LL	16dd/LL
.	.	.	.	16ff#\	.	16aa\	.	.	.	.	.	16b\JJ)	.	16gg\JJ)	.	16dd/	16dd/
8D\J	.	8a\J	.	16ff#\	.	16aa\	.	8D/	eſt	8d\	eſt	(>16a\LL	eſt	(>16ff#\LL	eſt	16dd/	16dd/
.	.	.	.	16ff#\JJ	.	16aa\JJ	.	.	.	.	.	16g\JJ)	.	16ee\JJ)	.	16dd/JJ	16dd/JJ
!	!	!	!	!	!	!LO:LB:g=original	!	!	!	!LO:LB:g=original	!	!	!	!	!	!	!
=68	=68	=68	=68	=68	=68	=68	=68	=68	=68	=68	=68	=68	=68	=68	=68	=68	=68
!	!	!	!	!LO:TX:a:t=P:problem:mixed beam	!	!LO:TX:a:t=P:problem:mixed beam	!	!	!	!	!	!	!	!	!	!	!
8c\L	: : :	8.f#\L	.	16ff#\LL	.	16aa\LL	.	8c\	gra-	8.A/	gra-	8.f#\	gra-	8.dd\	gra-	8dd/L	16dd/LL
.	.	.	.	16f#/	.	16a/	.	.	.	.	.	.	.	.	.	.	16dd/
8A\	.	.	.	16f#/	.	16a/	.	8A\	-ti-	.	.	.	.	.	.	8dd/J	16dd/
.	.	16f#\Jk	.	16f#/JJ	.	16a\JJ	.	.	.	16A/	-ti-	16f#\	-ti-	16dd\	-ti-	.	16dd/JJ
!	!	!	!	!LO:TX:a:t=P:problem:mixed beam	!	!LO:TX:a:t=P:problem:mixed beam	!	!	!	!	!	!	!	!	!	!LO:TX:a:t=P:problem:mixed beam	!LO:TX:a:t=P:problem:mixed beam
8F#\	.	8f#\L	.	16f#/LL	.	16a/LL	.	8F#\	-a	8A/	-a	8f#\	-a	8dd\	-a	8dd/L	8dd/L
.	.	.	.	16ff#\	.	16aa\	.	.	.	.	.	.	.	.	.	.	.
8D\J	.	8a\J	.	16ff#\	.	16aa\	.	8D/	in	8d\	in	8a\	in	8cc\	in	8aa\J	8ddd\J
.	.	.	.	16ff#\JJ	.	16aa\JJ	.	.	.	.	.	.	.	.	.	.	.
!LO:LB:g=original	!	!	!	!	!	!	!	!	!	!	!	!	!	!	!	!	!
=69	=69	=69	=69	=69	=69	=69	=69	=69	=69	=69	=69	=69	=69	=69	=69	=69	=69
!LO:TX:a:t=P:problem:mixed beam	!	!	!	!	!	!LO:N:vis=8	!	!	!	!	!	!	!	!	!	!LO:TX:a:t=P:problem:mixed beam	!
!	!	!	!	!	!	!LO:TX:a:t=P:problem:mixed beam	!	!	!	!	!	!	!	!	!	!	!
8G\L	.	8g\L	.	16gg\LL	.	16bb\LL	.	8G\	la-	8d\	la-	8g\	la-	8b\	la-	8gg\L	8bb\L
!	!	!	!	!	!	!LO:N:vis=8	!	!	!	!	!	!	!	!	!	!	!
.	.	.	.	16b\	.	16dd\	.	.	.	.	.	.	.	.	.	.	.
!	!	!	!	!	!	!LO:N:vis=8	!	!	!	!	!	!	!	!	!	!	!
8C/J	X 5-	16a\L	.	16cc\	.	16ee\	.	16E\	-bi-	16d\	-bi-	16a\	-bi-	16cc\	-bi-	8dd/J	8aa\J
!	!	!	!	!	!	!LO:N:vis=8	!	!	!	!	!	!	!	!	!	!	!
.	.	16g\JJ	.	16g\JJ	.	16a/JJ	.	16C/	-is	16e\	-is	16g\	-is	16a\	-is	.	.
8D/L	X 4	8g\L	.	8d/L	.	8b/L	.	4D/	tu-	4d\	tu-	8g\L	tu-	4a\	tu-	16b/LL	8bb\L
.	.	.	.	.	.	.	.	.	.	.	.	.	.	.	.	16g/	.
8DD/J	X 3	8f#\J	.	8d/J	.	16a/L	.	.	.	.	.	8f#\J	.	.	.	16b/	16aa\L
.	.	.	.	.	.	16g/JJ	.	.	.	.	.	.	.	.	.	16dd/JJ	16gg\JJ
!	!	!	!	!	!	!	!	!	!	!	!	!LO:LB:g=original	!	!	!	!	!
=70	=70	=70	=70	=70	=70	=70	=70	=70	=70	=70	=70	=70	=70	=70	=70	=70	=70
!	!	!	!	!	!	!LO:TX:a:i:t=Solo	!	!	!	!	!	!	!	!	!	!	!LO:TX:a:t=P:problem:mixed beam
4GG/	.	4g\	.	4d/	.	4g/	.	4GG/	-is	4d\	-is	4g\	-is	4g/	-is	16b/LL	16gg\LL
.	.	.	.	.	.	.	.	.	.	.	.	.	.	.	.	16b/	16dd/
.	.	.	.	.	.	.	.	.	.	.	.	.	.	.	.	16b/	16dd/
.	.	.	.	.	.	.	.	.	.	.	.	.	.	.	.	16b/JJ	16dd/JJ
4r	.	4r	.	4r	.	8r	.	4r	.	4r	.	4r	.	4r	.	16g/LL	16b/LL
.	.	.	.	.	.	.	.	.	.	.	.	.	.	.	.	16g/	16b/
.	.	.	.	.	.	8gg\	.	.	.	.	.	.	.	.	.	16g/	16b/
.	.	.	.	.	.	.	.	.	.	.	.	.	.	.	.	16g/JJ	16b/JJ
=71	=71	=71	=71	=71	=71	=71	=71	=71	=71	=71	=71	=71	=71	=71	=71	=71	=71
!LO:TX:a:i:t=Solo	!	!LO:TX:a:i:t=Solo	!	!LO:TX:b:i:t=solo	!	!	!	!LO:TX:a:i:t=Finis	!	!LO:TX:a:i:t=Fine	!	!LO:TX:a:i:t=Fine	!	!LO:TX:a:i:t=Fine.	!	!	!
!	!	!	!	!	!	!	!	!LO:N:vis=00	!	!LO:N:vis=00	!	!	!	!	!	!	!
!	!	!	!	!	!	!	!	!	!	!	!	!LO:N:vis=00	!	!	!	!	!
!	!	!	!	!	!	!	!	!	!	!	!	!	!	!LO:N:vis=00	!	!	!
4G\	.	4g\	.	4b\	.	8gg\L	.	0r	.	0r	.	0r	.	0r	.	4g/	4b/
.	.	.	.	.	.	8dd\J	.	.	.	.	.	.	.	.	.	.	.
!LO:TX:a:t=P:problem:mixed beam	!	!	!	!	!	!	!	!	!	!	!	!	!	!	!	!	!
8G\L	.	8g\L	.	8b/L	.	8dd\L	.	.	.	.	.	.	.	.	.	4r	4r
8C/J	.	8e\J	.	8g/J	.	16ee\L	.	.	.	.	.	.	.	.	.	.	.
.	.	.	.	.	.	16cc\JJ	.	.	.	.	.	.	.	.	.	.	.
!	!	!	!	!LO:LB:g=original	!	!	!	!	!	!	!	!	!	!	!	!	!
=72	=72	=72	=72	=72	=72	=72	=72	=72	=72	=72	=72	=72	=72	=72	=72	=72	=72
!	!	!	!	!	!	!	!	!	!	!	!	!	!	!	!	!LO:TX:b:i:t=Finis	!LO:TX:b:i:t=Finis
!	!	!	!	!	!	!	!	!	!	!	!	!	!	!	!	!LO:N:vis=00	!LO:N:vis=00
8G\L	.	4g\	.	16b/LL	.	16dd\LL	.	.	.	.	.	.	.	.	.	0r	0r
.	.	.	.	16a/	.	16cc\	.	.	.	.	.	.	.	.	.	.	.
8A\	X 6	.	.	16g/	.	16b\	.	.	.	.	.	.	.	.	.	.	.
.	.	.	.	16f#/JJ	.	16a\JJ	.	.	.	.	.	.	.	.	.	.	.
!	!	!	!	!	!	!LO:TX:a:t=P:problem:mixed beam	!	!	!	!	!	!	!	!	!	!	!
8B\	X 6	8d\L	.	8g/L	.	8g/L	.	.	.	.	.	.	.	.	.	.	.
8G\J	.	8g\J	.	8b/J	.	8dd\J	.	.	.	.	.	.	.	.	.	.	.
=73	=73	=73	=73	=73	=73	=73	=73	=73	=73	=73	=73	=73	=73	=73	=73	=73	=73
!	!	!	!	!LO:TX:a:t=P:problem:mixed beam	!	!	!	!	!	!	!	!	!	!	!	!	!
4C/	.	8g\L	.	8cc\L	.	8ee\L	.	.	.	.	.	.	.	.	.	.	.
.	.	8g\	.	8e/J	.	16cc\L	.	.	.	.	.	.	.	.	.	.	.
.	.	.	.	.	.	16b\JJ	.	.	.	.	.	.	.	.	.	.	.
!LO:TX:a:t=P:problem:mixed beam	!	!	!	!	!	!	!	!	!	!	!	!	!	!	!	!	!
8c\L	.	8e\	.	8a/L	.	8cc\L	.	.	.	.	.	.	.	.	.	.	.
8C/J	6 5	8c\J	.	8e/J	.	16a\L	.	.	.	.	.	.	.	.	.	.	.
.	.	.	.	.	.	16g\JJ	.	.	.	.	.	.	.	.	.	.	.
=74	=74	=74	=74	=74	=74	=74	=74	=74	=74	=74	=74	=74	=74	=74	=74	=74	=74
!	!	!LO:TX:a:t=P:problem:mixed beam	!	!	!	!	!	!	!	!	!	!	!	!	!	!	!
8D\L	.	8A/L	.	8d/L	.	8f#/L	.	.	.	.	.	.	.	.	.	.	.
16D\L	.	16a\L	.	16f#/L	.	8d/J	.	.	.	.	.	.	.	.	.	.	.
16E\JJ	.	16g\JJ	.	16g/JJ	.	.	.	.	.	.	.	.	.	.	.	.	.
8F#\L	.	8f#\L	.	8a/L	.	8r	.	.	.	.	.	.	.	.	.	.	.
8G\J	.	8b\J	.	8b/J	.	8dd\	.	.	.	.	.	.	.	.	.	.	.
!	!	!LO:LB:g=original	!	!	!	!	!	!	!	!	!	!	!	!	!	!	!
=75	=75	=75	=75	=75	=75	=75	=75	=75	=75	=75	=75	=75	=75	=75	=75	=75	=75
!	!	!	!	!	!	!	!	!LO:N:vis=00	!	!LO:N:vis=00	!	!	!	!	!	!	!
!	!	!	!	!	!	!	!	!	!	!	!	!LO:N:vis=00	!	!	!	!	!
!	!	!	!	!	!	!	!	!	!	!	!	!	!	!LO:N:vis=00	!	!	!
8c\L	.	8g\L	.	16cc\LL	.	16ee\LL	.	0r	.	0r	.	0r	.	0r	.	.	.
.	.	.	.	16dd\	.	16ffn\	.	.	.	.	.	.	.	.	.	.	.
8G\J	X 7-	8g\	.	16b\	.	16dd\	.	.	.	.	.	.	.	.	.	.	.
.	.	.	.	16dd\JJ	.	16ff\JJ	.	.	.	.	.	.	.	.	.	.	.
!LO:TX:a:t=P:problem:mixed beam	!	!	!	!	!	!	!	!	!	!	!	!	!	!	!	!	!
8C/L	.	8g\	.	16cc\LL	.	16ee\LL	.	.	.	.	.	.	.	.	.	.	.
.	.	.	.	16dd\	.	16ffn\	.	.	.	.	.	.	.	.	.	.	.
8G\J	X 7-	8g\J	.	16b\	.	16dd\	.	.	.	.	.	.	.	.	.	.	.
.	.	.	.	16dd\JJ	.	16ff\JJ	.	.	.	.	.	.	.	.	.	.	.
=76	=76	=76	=76	=76	=76	=76	=76	=76	=76	=76	=76	=76	=76	=76	=76	=76	=76
!	!	!	!	!LO:TX:a:t=P:problem:mixed beam	!	!	!	!	!	!	!	!	!	!	!	!	!
!	!	!	!	!	!	!	!	!	!	!	!	!	!	!	!	!LO:N:vis=00	!LO:N:vis=00
8c\L	.	8g\L	.	8cc\L	.	16ee\LL	.	.	.	.	.	.	.	.	.	0r	0r
.	.	.	.	.	.	16dd\	.	.	.	.	.	.	.	.	.	.	.
8G\J	.	8g\	.	16e/L	.	16cc\	.	.	.	.	.	.	.	.	.	.	.
.	.	.	.	16d/JJ	.	16b\JJ	.	.	.	.	.	.	.	.	.	.	.
!LO:TX:a:t=P:problem:mixed beam	!	!	!	!LO:TX:a:t=P:problem:mixed beam	!	!	!	!	!	!	!	!	!	!	!	!	!
8C/L	.	8g\	.	8e/L	.	8cc\L	.	.	.	.	.	.	.	.	.	.	.
8A\J	X #	8a\J	.	8cc#X\J	.	8ee\J	.	.	.	.	.	.	.	.	.	.	.
!	!	!	!	!	!	!LO:LB:g=original	!	!	!	!	!	!	!	!	!	!	!
=77	=77	=77	=77	=77	=77	=77	=77	=77	=77	=77	=77	=77	=77	=77	=77	=77	=77
8d\L	.	8a\L	.	16dd\LL	.	16ff#\LL	.	.	.	.	.	.	.	.	.	.	.
.	.	.	.	16ee\	.	16gg\	.	.	.	.	.	.	.	.	.	.	.
8A\J	7 #	8a\	.	16cc#X\	.	16ee\	.	.	.	.	.	.	.	.	.	.	.
.	.	.	.	16ee\JJ	.	16gg\JJ	.	.	.	.	.	.	.	.	.	.	.
!LO:TX:a:t=P:problem:mixed beam	!	!	!	!	!	!	!	!	!	!	!	!	!	!	!	!	!
8D/L	.	8a\	.	16dd\LL	.	16ff#\LL	.	.	.	.	.	.	.	.	.	.	.
.	.	.	.	16ee\	.	16gg\	.	.	.	.	.	.	.	.	.	.	.
8A\J	7 #	8a\J	.	16cc#X\	.	16ee\	.	.	.	.	.	.	.	.	.	.	.
.	.	.	.	16ee\JJ	.	16gg\JJ	.	.	.	.	.	.	.	.	.	.	.
=78	=78	=78	=78	=78	=78	=78	=78	=78	=78	=78	=78	=78	=78	=78	=78	=78	=78
!	!	!	!	!LO:TX:a:t=P:problem:mixed beam	!	!	!	!	!	!	!	!	!	!	!	!	!
8d\L	.	8a\L	.	8dd\L	.	16ff#\LL	.	.	.	.	.	.	.	.	.	.	.
.	.	.	.	.	.	16ee\	.	.	.	.	.	.	.	.	.	.	.
8A\J	X #	8a\	.	16f#/L	.	16dd\	.	.	.	.	.	.	.	.	.	.	.
.	.	.	.	16e/JJ	.	16cc#X\JJ	.	.	.	.	.	.	.	.	.	.	.
8D/L	.	8a\	.	8f#/L	.	8dd\L	.	.	.	.	.	.	.	.	.	.	.
8BB/J	x 6	8d\J	.	8b/J	.	8gg\J	.	.	.	.	.	.	.	.	.	.	.
=79	=79	=79	=79	=79	=79	=79	=79	=79	=79	=79	=79	=79	=79	=79	=79	=79	=79
!	!	!	!	!	!	!	!	!LO:N:vis=00	!	!LO:N:vis=00	!	!	!	!	!	!	!
!	!	!	!	!	!	!	!	!	!	!	!	!LO:N:vis=00	!	!	!	!	!
4GG/	.	4g\	.	4b/	.	8gg\L	.	0r	.	0r	.	0r	.	2ryy	.	.	.
.	.	.	.	.	.	8dd\J	.	.	.	.	.	.	.	.	.	.	.
!LO:TX:a:t=P:problem:mixed beam	!	!	!	!	!	!	!	!	!	!	!	!	!	!	!	!	!
8G\L	.	8g\L	.	8b/L	.	8dd\L	.	.	.	.	.	.	.	.	.	.	.
8C/J	X 6	8e\J	.	8g/J	.	16ee\L	.	.	.	.	.	.	.	.	.	.	.
.	.	.	.	.	.	16cc\JJ	.	.	.	.	.	.	.	.	.	.	.
!LO:LB:g=original	!	!	!	!LO:LB:g=original	!	!	!	!	!	!	!	!	!	!	!	!	!
=80	=80	=80	=80	=80	=80	=80	=80	=80	=80	=80	=80	=80	=80	=80	=80	=80	=80
!LO:TX:a:t=P:problem:zbędne powtórzenie t. 80	!	!	!	!	!	!	!	!	!	!	!	!	!	!	!	!	!
!	!	!	!	!	!	!	!	!	!	!	!	!	!	!LO:N:vis=0	!	!	!
4GG/	.	2ryy	.	2ryy	.	2ryy	.	.	.	.	.	.	.	1r	.	2ryy	2ryy
!LO:TX:a:t=P:problem:mixed beam	!	!	!	!	!	!	!	!	!	!	!	!	!	!	!	!	!
8G\L	.	.	.	.	.	.	.	.	.	.	.	.	.	.	.	.	.
8C/J	.	.	.	.	.	.	.	.	.	.	.	.	.	.	.	.	.
=81	=81	=81	=81	=81	=81	=81	=81	=81	=81	=81	=81	=81	=81	=81	=81	=81	=81
!	!	!	!	!	!	!	!	!	!	!	!	!	!	!	!	!LO:N:vis=00	!LO:N:vis=00
8G\L	.	8B/L	.	16b/LL	.	16dd\LL	.	.	.	.	.	.	.	.	.	0r	0r
.	.	.	.	16a/	.	16cc\	.	.	.	.	.	.	.	.	.	.	.
8A\	.	8c/J	.	16g/	.	16b\	.	.	.	.	.	.	.	.	.	.	.
.	.	.	.	16f#/JJ	.	16a\JJ	.	.	.	.	.	.	.	.	.	.	.
!	!	!	!	!	!	!LO:TX:a:t=P:problem:mixed beam	!	!	!	!	!	!	!	!	!	!	!
8B\	.	8d\L	.	8g/L	.	8g/L	.	.	.	.	.	.	.	.	.	.	.
8F#\J	X 6	8d\J	.	8a/J	.	8dd\J	.	.	.	.	.	.	.	.	.	.	.
=82	=82	=82	=82	=82	=82	=82	=82	=82	=82	=82	=82	=82	=82	=82	=82	=82	=82
!LO:TX:a:t=P:problem:mixed beam	!	!	!	!	!	!	!	!	!	!	!	!	!	!	!	!	!
8G\L	.	8d\L	.	8g/L	.	8b\L	.	.	.	.	.	.	.	2r	.	.	.
8C\	6 5	8e\	.	8g/J	.	16ee\L	.	.	.	.	.	.	.	.	.	.	.
.	.	.	.	.	.	16a\JJ	.	.	.	.	.	.	.	.	.	.	.
8D\	5 4	8d\	.	8g/L	.	4a/	.	.	.	.	.	.	.	.	.	.	.
8DD/J	X 3	8d\J	.	8f#/J	.	.	.	.	.	.	.	.	.	.	.	.	.
=83	=83	=83	=83	=83	=83	=83	=83	=83	=83	=83	=83	=83	=83	=83	=83	=83	=83
!LO:TX:b:i:t=Finis	!	!LO:TX:a:i:t=Fine	!	!LO:TX:b:i:t=Finis	!	!LO:TX:b:i:t=Finis	!	!	!	!	!	!	!	!	!	!	!
4GG;;/	.	4d\	.	4g/	.	4g/	.	2ryy	.	2ryy	.	2ryy	.	4r	.	.	.
8G\L	.	4r	.	4r	.	4r	.	.	.	.	.	.	.	8r	.	.	.
8D#X\J	X 6	.	.	.	.	.	.	.	.	.	.	.	.	8b\	Pro-	.	.
=84	=84	=84	=84	=84	=84	=84	=84	=84	=84	=84	=84	=84	=84	=84	=84	=84	=84
!	!	!LO:N:vis=0	!	!LO:N:vis=0	!	!LO:N:vis=0	!	!	!	!	!	!	!	!	!	!	!
!	!	!	!	!	!	!	!	!LO:N:vis=00	!	!LO:N:vis=00	!	!	!	!	!	!	!
!	!	!	!	!	!	!	!	!	!	!	!	!LO:N:vis=00	!	!	!	!	!
4E\	x n	1r	.	1r	.	1r	.	0r	.	0r	.	0r	.	8ee\	-pte-	.	.
.	.	.	.	.	.	.	.	.	.	.	.	.	.	16dd#X\	-re-	.	.
.	.	.	.	.	.	.	.	.	.	.	.	.	.	16ee\	-a	.	.
8r	.	.	.	.	.	.	.	.	.	.	.	.	.	8ff#\	be-	.	.
8BB/	.	.	.	.	.	.	.	.	.	.	.	.	.	16ee\LL	-ne-	.	.
.	.	.	.	.	.	.	.	.	.	.	.	.	.	16ff#\JJ	.	.	.
=85	=85	=85	=85	=85	=85	=85	=85	=85	=85	=85	=85	=85	=85	=85	=85	=85	=85
!	!	!	!	!	!	!	!	!	!	!	!	!	!	!	!	!LO:N:vis=00	!LO:N:vis=00
8E\L	.	.	.	.	.	.	.	.	.	.	.	.	.	8gg\	-di-	0r	0r
16D#X\L	.	.	.	.	.	.	.	.	.	.	.	.	.	8ee\	-xit	.	.
16E\JJ	.	.	.	.	.	.	.	.	.	.	.	.	.	.	.	.	.
8F#\L	X 6/	.	.	.	.	.	.	.	.	.	.	.	.	8r	.	.	.
16E\L	.	.	.	.	.	.	.	.	.	.	.	.	.	8b\	te	.	.
16F#\JJ	.	.	.	.	.	.	.	.	.	.	.	.	.	.	.	.	.
!	!	!	!	!	!	!	!	!	!	!	!	!	!	!LO:LB:g=original	!	!	!
=86	=86	=86	=86	=86	=86	=86	=86	=86	=86	=86	=86	=86	=86	=86	=86	=86	=86
8G\L	X 6	2r	.	2r	.	2r	.	.	.	.	.	.	.	8ee\	De-	.	.
8E\J	.	.	.	.	.	.	.	.	.	.	.	.	.	(>16dd#X\LL	-us	.	.
.	.	.	.	.	.	.	.	.	.	.	.	.	.	16ee\JJ)	.	.	.
8r	.	.	.	.	.	.	.	.	.	.	.	.	.	8ff#\	in	.	.
8BB/	x #	.	.	.	.	.	.	.	.	.	.	.	.	16ee\LL	ae-	.	.
.	.	.	.	.	.	.	.	.	.	.	.	.	.	16ff#\JJ	.	.	.
=87	=87	=87	=87	=87	=87	=87	=87	=87	=87	=87	=87	=87	=87	=87	=87	=87	=87
4E\	X n	4e\	.	4g/	.	8ee\L	.	.	.	.	.	.	.	8gg\	-ter-	.	.
.	.	.	.	.	.	8b\J	.	.	.	.	.	.	.	8ee\	-num	.	.
!LO:TX:a:t=P:problem:mixed beam	!	!	!	!	!	!	!	!	!	!	!	!	!	!	!	!	!
8E\L	.	8e\L	.	8g/L	.	8b\L	.	.	.	.	.	.	.	4r	.	.	.
8AA/J	X n	8c\J	.	8e/J	.	16cc\L	.	.	.	.	.	.	.	.	.	.	.
.	.	.	.	.	.	16a\JJ	.	.	.	.	.	.	.	.	.	.	.
=88	=88	=88	=88	=88	=88	=88	=88	=88	=88	=88	=88	=88	=88	=88	=88	=88	=88
!	!	!	!	!	!	!	!	!	!	!LO:N:vis=00	!	!	!	!	!	!	!
!	!	!	!	!	!	!	!	!	!	!	!	!LO:N:vis=00	!	!	!	!	!
!	!	!	!	!	!	!	!	!	!	!	!	!	!	!LO:N:vis=0	!	!	!
8E\L	.	4e\	.	8g/L	.	16b/LL	.	2r	.	0r	.	0r	.	1r	.	.	.
.	.	.	.	.	.	16a/	.	.	.	.	.	.	.	.	.	.	.
8F#\	X 6/	.	.	8d#X/J	.	16g/	.	.	.	.	.	.	.	.	.	.	.
.	.	.	.	.	.	16f#/JJ	.	.	.	.	.	.	.	.	.	.	.
8G\	X 6	8B\L	.	8e/L	.	8e/L	.	.	.	.	.	.	.	.	.	.	.
8E\J	.	8e\J	.	8g/J	.	8b/J	.	.	.	.	.	.	.	.	.	.	.
!	!	!	!	!	!	!	!	!LO:LB:g=original	!	!	!	!	!	!	!	!	!
=89	=89	=89	=89	=89	=89	=89	=89	=89	=89	=89	=89	=89	=89	=89	=89	=89	=89
!	!	!	!	!	!	!	!	!LO:TX:a:i:t=Solo	!	!	!	!	!	!	!	!	!
!	!	!	!	!	!	!	!	!	!	!	!	!	!	!	!	!LO:N:vis=00	!LO:N:vis=00
4AA/	5 3-	8e\L	.	8a/L	.	8cc\L	.	4r	.	.	.	.	.	.	.	0r	0r
.	.	8e\J	.	8cc/J	.	16aa\L	.	.	.	.	.	.	.	.	.	.	.
.	.	.	.	.	.	16gg\JJ	.	.	.	.	.	.	.	.	.	.	.
!LO:TX:a:t=P:problem:mixed beam	!	!	!	!	!	!	!	!	!	!	!	!	!	!	!	!	!
8AA/L	x 6/	8c/L	.	8f#/L	.	8aa\L	.	8r	.	.	.	.	.	.	.	.	.
8A\J	X 5	8A/J	.	8cc/J	.	16ff#\L	.	8A\	Pro-	.	.	.	.	.	.	.	.
.	.	.	.	.	.	16ee\JJ	.	.	.	.	.	.	.	.	.	.	.
!	!	!LO:LB:g=original	!	!	!	!	!	!	!	!	!	!	!	!	!	!	!
=90	=90	=90	=90	=90	=90	=90	=90	=90	=90	=90	=90	=90	=90	=90	=90	=90	=90
16B\LL	X #:	4F#/	.	4b/	.	4dd#X\	.	(>16B\LL	-pte-	.	.	.	.	4r	.	.	.
16A\	.	.	.	.	.	.	.	16A\JJ)	.	.	.	.	.	.	.	.	.
16B\	.	.	.	.	.	.	.	16B\	-re-	.	.	.	.	.	.	.	.
16c\JJ	.	.	.	.	.	.	.	16c\	-a	.	.	.	.	.	.	.	.
16B\LL	.	4r	.	4r	.	4r	.	(>16B\LL	be-	.	.	.	.	8r	.	.	.
16A\	.	.	.	.	.	.	.	16A\JJ)	.	.	.	.	.	.	.	.	.
16G\	.	.	.	.	.	.	.	(>16G\LL	-ne-	.	.	.	.	8b\	pro-	.	.
16F#\JJ	.	.	.	.	.	.	.	16F#\JJ)	.	.	.	.	.	.	.	.	.
!LO:LB:g=original	!	!	!	!	!	!	!	!	!	!	!	!	!	!	!	!	!
=91	=91	=91	=91	=91	=91	=91	=91	=91	=91	=91	=91	=91	=91	=91	=91	=91	=91
!	!	!LO:N:vis=00	!	!LO:N:vis=00	!	!LO:N:vis=00	!	!	!	!	!	!	!	!	!	!	!
8G\L	x 6	0r	.	0r	.	0r	.	8G\	-di-	.	.	.	.	(>16ee\LL	-pte-	.	.
.	.	.	.	.	.	.	.	.	.	.	.	.	.	16dd\JJ)	.	.	.
8B\J	X #	.	.	.	.	.	.	8B\	-xit	.	.	.	.	16ee\	-re-	.	.
.	.	.	.	.	.	.	.	.	.	.	.	.	.	16ff#\	-a	.	.
8E\L	X n	.	.	.	.	.	.	8E\	te	.	.	.	.	(>16ee\LL	be-	.	.
.	.	.	.	.	.	.	.	.	.	.	.	.	.	16dd\JJ)	.	.	.
8E\J	.	.	.	.	.	.	.	8E\	pro-	.	.	.	.	(>16cc\LL	-ne-	.	.
.	.	.	.	.	.	.	.	.	.	.	.	.	.	16b\JJ)	.	.	.
=92	=92	=92	=92	=92	=92	=92	=92	=92	=92	=92	=92	=92	=92	=92	=92	=92	=92
!	!	!	!	!	!	!	!	!	!	!LO:N:vis=0	!	!	!	!	!	!	!
!	!	!	!	!	!	!	!	!	!	!	!	!LO:N:vis=0	!	!	!	!	!
16A\LL	X n	.	.	.	.	.	.	16A\LL	-pte-	1r	.	1r	.	8cc\	-di-	.	.
16G\	.	.	.	.	.	.	.	16G\JJ	.	.	.	.	.	.	.	.	.
16A\	.	.	.	.	.	.	.	16A\	-re-	.	.	.	.	8ee\	-xit	.	.
16B\JJ	.	.	.	.	.	.	.	16B\	-a	.	.	.	.	.	.	.	.
16A\LL	.	.	.	.	.	.	.	(>16A\LL	be-	.	.	.	.	8a\	te	.	.
16G\	.	.	.	.	.	.	.	16G\JJ)	.	.	.	.	.	.	.	.	.
16F#\	.	.	.	.	.	.	.	(>16F#\LL	-ne-	.	.	.	.	8a\	pro-	.	.
16E\JJ	.	.	.	.	.	.	.	16E\JJ)	.	.	.	.	.	.	.	.	.
=93	=93	=93	=93	=93	=93	=93	=93	=93	=93	=93	=93	=93	=93	=93	=93	=93	=93
!	!	!	!	!	!	!	!	!	!	!	!	!	!	!	!	!LO:N:vis=0	!LO:N:vis=0
8F#\L	X 6	.	.	.	.	.	.	8F#\	-di-	.	.	.	.	(>16dd\LL	-pte-	1r	1r
.	.	.	.	.	.	.	.	.	.	.	.	.	.	16cc\JJ)	.	.	.
8A\J	.	.	.	.	.	.	.	8A\	-xit	.	.	.	.	16dd\	-re-	.	.
.	.	.	.	.	.	.	.	.	.	.	.	.	.	16ee\	-a	.	.
8D/L	.	.	.	.	.	.	.	8D/	te	.	.	.	.	(>16dd\LL	be-	.	.
.	.	.	.	.	.	.	.	.	.	.	.	.	.	16cc\JJ)	.	.	.
8D/J	.	.	.	.	.	.	.	8D/	pro-	.	.	.	.	(>16b\LL	-ne-	.	.
.	.	.	.	.	.	.	.	.	.	.	.	.	.	16a\JJ)	.	.	.
!	!	!	!	!	!	!	!	!	!	!	!	!	!	!LO:LB:g=original	!	!	!
=94	=94	=94	=94	=94	=94	=94	=94	=94	=94	=94	=94	=94	=94	=94	=94	=94	=94
!	!	!	!	!LO:TX:a:t=P:problem:błąd renderowania - wyświetla się pauza, mimo że została zamieniona na pauzę 4-takttową	!	!	!	!	!	!	!	!	!	!	!	!	!
16G\LL	.	.	.	.	.	.	.	16G\LL	-pte-	2r	.	2r	.	8b\	-di-	.	.
16F#\	.	.	.	.	.	.	.	16F#\JJ	.	.	.	.	.	.	.	.	.
!	!	!	!	!	!	!	!	!LO:N:vis=8.	!	!	!	!	!	!	!	!	!
16G\	.	.	.	.	.	.	.	16G\	-re-	.	.	.	.	8dd\	-xit	.	.
16A\JJ	.	.	.	.	.	.	.	16A\	-a	.	.	.	.	.	.	.	.
!	!	!	!	!	!	!	!	!LO:LB:g=original	!	!	!	!	!	!	!	!	!
16G\LL	.	.	.	.	.	.	.	(>16G\LL	be-	.	.	.	.	8g/	te	.	.
16F#\	.	.	.	.	.	.	.	16F#\JJ)	.	.	.	.	.	.	.	.	.
16E\	.	.	.	.	.	.	.	(>16E\LL	-ne-	.	.	.	.	8b\	pro-	.	.
!	!	!	!	!LO:TX:a:t=P:problem:w źródle "V Cito" zapisane na pięciolinii, za taktem 94	!	!	!	!	!	!	!	!	!	!	!	!	!
!	!	!	!	!LO:TX:b:i:t=V Cito	!	!	!	!	!	!	!	!	!	!	!	!	!
16D#X\JJ	.	.	.	.	.	.	.	16D#X\JJ)	.	.	.	.	.	.	.	.	.
!	!	!	!	!LO:PB:g=original	!	!	!	!	!	!	!	!	!	!	!	!	!
!	!	!	!	!	!	!LO:PB:g=original	!	!	!	!	!	!	!	!	!	!	!
=95	=95	=95	=95	=95	=95	=95	=95	=95	=95	=95	=95	=95	=95	=95	=95	=95	=95
!	!	!LO:TX:b:i:t=Tutti	!	!LO:TX:b:i:t=Tutti	!	!LO:TX:b:i:t=Tutti	!	!	!	!	!	!	!	!	!	!	!
4E\	.	4r	.	4r	.	4r	.	8E\	-di-	4r	.	4r	.	8ee\	-pte-	4r	4r
.	.	.	.	.	.	.	.	8E\	-xit	.	.	.	.	16dd#X\	-re-	.	.
.	.	.	.	.	.	.	.	.	.	.	.	.	.	16ee\	-a	.	.
!LO:TX:b:i:t=tutti	!	!	!	!	!	!	!	!LO:TX:a:i:t=Tut	!	!	!	!	!	!	!	!	!
8r	.	8r	.	8r	.	8r	.	8r	.	8r	.	8r	.	8ff#\	be-	8r	8r
8BB/	x #	8B/	.	8dd#X\	.	8ff#\	.	8BB/	pro-	8B\	Pro-	8f#\	Pro-	16ee\LL	-ne-	8b/	8b/
.	.	.	.	.	.	.	.	.	.	.	.	.	.	16ff#\JJ	.	.	.
=96	=96	=96	=96	=96	=96	=96	=96	=96	=96	=96	=96	=96	=96	=96	=96	=96	=96
!	!	!LO:TX:a:t=P:problem:mixed beam	!	!	!	!	!	!	!	!	!	!	!	!	!	!	!
8E\L	X n	8B/L	.	8ee\L	.	8gg\L	.	8E\	-pte-	8B\	-pte-	8g\	-pte-	8gg\	-di-	8b/L	8b/L
16D#X\L	.	8b\J	.	16b\L	.	16ff#\L	.	16D#X/	-re-	16B\	-re-	16f#\	-re-	8ee\	-xit	16b/L	16b/L
16E\JJ	.	.	.	16ee\JJ	.	16gg\JJ	.	16E\	-a	16B\	-a	16g\	-a	.	.	16b/JJ	16b/JJ
!	!	!	!	!	!	!	!	!	!	!	!	!	!	!	!	!	!LO:LB:g=original
8F#\L	x 6/	8a\L	.	8dd#X\L	.	8aa\L	.	8F#\	be-	8d#X\	be-	8a\	be-	8r	.	16b/LL	16b/LL
.	.	.	.	.	.	.	.	.	.	.	.	.	.	.	.	16b/	16b/
16E\L	.	16b\L	.	16b\L	.	16gg\L	.	(>16E\LL	-ne-	16e\LL	-ne-	(>16g\LL	-ne-	8b\	te	16b/	16b/
16F#\JJ	X 6/	16a\JJ	.	16ff#\JJ	.	16aa\JJ	.	16F#\JJ)	.	16d#X\JJ	.	16a\JJ)	.	.	.	16b/JJ	16b/JJ
!	!	!	!	!	!	!	!	!	!	!	!	!	!	!	!	!LO:LB:g=original	!
=97	=97	=97	=97	=97	=97	=97	=97	=97	=97	=97	=97	=97	=97	=97	=97	=97	=97
8G\L	x 6	8g\L	.	8ee\L	.	8bb\L	.	8G\	-di-	8e\	-di-	8b\	-di-	8ee\	De-	8b/L	8b/L
8E\J	.	8b\J	.	8ee\J	.	8gg\J	.	8E\	-xit	8B\	-xit	8g\	-xit	16dd#X\LL	-us	8b/J	8b/J
.	.	.	.	.	.	.	.	.	.	.	.	.	.	16ee\JJ	.	.	.
8r	.	8r	.	8r	.	8r	.	8r	.	8r	.	8r	.	8ff#\	in	8r	8r
8BB/	X #	8b\	.	8dd#X\	.	8ff#\	.	8BB/	te	8B\	te	8f#\	te	(>16ee\LL	ae-	8b/	8b/
.	.	.	.	.	.	.	.	.	.	.	.	.	.	16ff#\JJ)	.	.	.
!	!	!	!	!	!	!	!	!	!	!LO:LB:g=original	!	!	!	!	!	!	!
=98	=98	=98	=98	=98	=98	=98	=98	=98	=98	=98	=98	=98	=98	=98	=98	=98	=98
8E\L	X n	8b\L	.	8ee\L	.	8gg\L	.	8E\	De-	8B\	De-	8g\	De-	8gg\	-ter-	8b/L	16b/LL
.	.	.	.	.	.	.	.	.	.	.	.	.	.	.	.	.	16b/
16D#X\L	.	8b\J	.	16b\L	.	16ff#\L	.	(>16D#X\LL	-us	8B\	-us	(>16f#\LL	-us	8ee\	-num	8b/	16b/
16E\JJ	.	.	.	16ee\JJ	.	16gg\JJ	.	16E\JJ)	.	.	.	16g\JJ)	.	.	.	.	16b/JJ
8F#\L	X 6/	8a\L	.	8dd#X\L	.	8aa\L	.	8F#\	in	8d#X\	in	8a\	in	8dd#X\	in	8b/	16b/LL
.	.	.	.	.	.	.	.	.	.	.	.	.	.	.	.	.	16b/
16E\L	.	16b\L	.	16ee\L	.	16gg\L	.	(>16E\LL	ae-	8B\	ae-	(>16g\LL	ae-	16ee\LL	ae-	8b/J	16b/
16F#\JJ	X 6/	16a\JJ	.	16dd#X\JJ	.	16aa\JJ	.	16F#\JJ)	.	.	.	16a\JJ)	.	16dd#X\JJ	.	.	16b/JJ
=99	=99	=99	=99	=99	=99	=99	=99	=99	=99	=99	=99	=99	=99	=99	=99	=99	=99
8G\L	X 6	8g\L	.	16ee\LL	.	16bb\LL	.	8G\	-ter-	8e\	-ter-	8b\	-ter-	8ee\	-ter-	8b/L	8b/L
.	.	.	.	16ee\	.	16gg\	.	.	.	.	.	.	.	.	.	.	.
8E\J	.	8b\J	.	16ee\	.	16gg\	.	8E\	-num	8e\	-num	8g\	-num	8ee\	-num	8b/J	8b/J
.	.	.	.	16ee\JJ	.	16gg\JJ	.	.	.	.	.	.	.	.	.	.	.
!	!	!	!	!	!	!	!	!LO:LB:g=original	!	!	!	!	!	!	!	!	!
8A\L	7: #:	8g\L	.	16cc#X\LL	.	16ee\LL	.	8A\	et	8e\	et	8g\	et	8cc#X\	et	8r	8aa\L
.	.	.	.	16ee\	.	16gg\	.	.	.	.	.	.	.	.	.	.	.
8G\J	.	8g\J	.	16ee\	.	16gg\	.	8G\	in	8c#X\	in	8g\	in	8cc#\	in	8aa\	8aa\J
.	.	.	.	16ee\JJ	.	16gg\JJ	.	.	.	.	.	.	.	.	.	.	.
!LO:LB:g=original	!	!	!	!	!	!	!	!	!	!	!	!	!	!	!	!	!
!	!	!	!	!	!	!	!	!	!	!	!	!LO:LB:g=original	!	!	!	!	!
!	!	!	!	!	!	!	!	!	!	!	!	!	!	!LO:PB:g=original	!	!	!
=100	=100	=100	=100	=100	=100	=100	=100	=100	=100	=100	=100	=100	=100	=100	=100	=100	=100
8F#\L	x 6	8d\L	.	16dd\LL	.	16aa\LL	.	8F#\	Sae-	8A/	sae-	8a\	Sae-	8dd\	Sae-	8aa\L	8ddd\L
.	.	.	.	16dd\	.	16aa\	.	.	.	.	.	.	.	.	.	.	.
16E\L	.	8dd\J	.	16ee\	.	16aa\	.	16E\	-cu-	16A/	-cu-	16g\	-cu-	16dd\	-cu-	8aa\J	8ddd\
16D\JJ	.	.	.	16ff#\JJ	.	16aa\JJ	.	16D/	-lum	16A/	-lum	16f#\	-lum	16dd\	-lum	.	.
!LO:TX:a:t=P:problem:mixed beam	!	!	!	!	!	!	!	!	!	!	!	!	!	!	!	!	!
8A\L	X 4	8dd\L	.	16ee\LL	.	16aa\LL	.	8A\	Sae-	8.A/	sae-	8.e\	Sae-	8dd\	sae-	8aa\L	8ddd\
.	.	.	.	16ee\	.	16aa\	.	.	.	.	.	.	.	.	.	.	.
8AA/J	X #	8cc#X\J	.	16ee\	.	16aa\	.	8AA/	-cu-	.	.	.	.	8cc#X\	-cu-	16aa\L	8ccc#X\J
.	.	.	.	16ee\JJ	.	16aa\JJ	.	.	.	16A/	-cu-	16e\	-cu-	.	.	16aa\JJ	.
!	!	!LO:LB:g=original	!	!	!	!	!	!	!	!	!	!	!	!	!	!	!
=101	=101	=101	=101	=101	=101	=101	=101	=101	=101	=101	=101	=101	=101	=101	=101	=101	=101
8D\L	.	4dd\	.	4ff#\	.	16aa\LL	.	4D/	-li	4A/	-li	4f#\	-li	4dd\	-li	4aa\	4ddd\
.	.	.	.	.	.	16dd\	.	.	.	.	.	.	.	.	.	.	.
16D\L	.	.	.	.	.	16dd\	.	.	.	.	.	.	.	.	.	.	.
16E\JJ	.	.	.	.	.	16dd\JJ	.	.	.	.	.	.	.	.	.	.	.
!	!	!	!	!	!	!LO:TX:a:t=P:problem:mixed beam	!	!	!	!	!	!	!	!	!	!	!
8F#\L	.	4r	.	16r	.	8dd\L	.	4r	.	4r	.	4r	.	8dd\	in	8r	8r
.	.	.	.	16dd\LL	.	.	.	.	.	.	.	.	.	.	.	.	.
8D\J	.	.	.	16dd\	.	8d/J	.	.	.	.	.	.	.	8dd\	ae-	8dd/	8aa\
.	.	.	.	16dd\JJ	.	.	.	.	.	.	.	.	.	.	.	.	.
=102	=102	=102	=102	=102	=102	=102	=102	=102	=102	=102	=102	=102	=102	=102	=102	=102	=102
!	!	!	!	!	!	!	!	!	!	!	!	!	!	!	!	!LO:TX:a:t=P:problem:mixed beam	!
4r	.	16r	.	4dd\	.	16d/LL	.	2r	.	4r	.	8d\	in	2dd\	-ter-	16gg\LL	16bb\LL
.	.	16dd\LL	.	.	.	16e/	.	.	.	.	.	.	.	.	.	16aa\	16ccc\
.	.	16dd\	.	.	.	16f#/	.	.	.	.	.	8d\	ae-	.	.	16dd/	16aa\
.	.	16dd\JJ	.	.	.	16g/JJ	.	.	.	.	.	.	.	.	.	16aa\JJ	16ccc\JJ
8r	.	8dd\L	.	4r	.	16a\LL	.	.	.	8d\	in	4d\	-ter-	.	.	16gg\LL	16bb\LL
.	.	.	.	.	.	16b\	.	.	.	.	.	.	.	.	.	16aa\	16ccc\
8D/	.	8d\J	.	.	.	16cc#X\	.	.	.	8d\	ae-	.	.	.	.	16dd\	16aa\
.	.	.	.	.	.	16dd\JJ	.	.	.	.	.	.	.	.	.	16aa\JJ	16ccc\JJ
!	!	!	!	!LO:LB:g=original	!	!LO:LB:g=original	!	!	!	!	!	!	!	!	!	!	!
=103	=103	=103	=103	=103	=103	=103	=103	=103	=103	=103	=103	=103	=103	=103	=103	=103	=103
8GG/L	.	16r	.	16d/LL	.	16d/LL	.	4r	.	2d\	-ter-	4d\	-num	4dd\	-num	16gg/LL	16bb\LL
.	.	16d\LL	.	16e/	.	16e/	.	.	.	.	.	.	.	.	.	16dd/	16aa\
8D/J	.	16d\	.	16f#/	.	16f#/	.	.	.	.	.	.	.	.	.	16b/	16gg\
.	.	16d\JJ	.	16g/JJ	.	16g/JJ	.	.	.	.	.	.	.	.	.	16dd/JJ	16aa\JJ
!	!	!	!	!	!	!	!	!	!	!	!	!	!	!	!	!LO:TX:a:t=P:problem:mixed beam	!
4r	.	8d\L	.	16a\LL	.	16a\LL	.	8d\	in	.	.	8d\	in	8dd\	in	8gg\L	8bb\L
.	.	.	.	16b\	.	16b\	.	.	.	.	.	.	.	.	.	.	.
.	.	8d\J	.	16cc#X\	.	16cc#X\	.	8d\	ae-	.	.	8d\	ae-	8dd\	ae-	8dd/J	8aa\J
.	.	.	.	16dd\JJ	.	16dd\JJ	.	.	.	.	.	.	.	.	.	.	.
=104	=104	=104	=104	=104	=104	=104	=104	=104	=104	=104	=104	=104	=104	=104	=104	=104	=104
*	*	*	*	*	*	*	*	*2\right	*	*	*	*	*	*	*	*	*
!	!	!	!	!	!	!LO:TX:a:t=P:problem:mixed beam	!	!	!	!	!	!	!	!	!	!	!
4r	.	16d\LL	.	4d/	.	16d/LL	.	2d\	-ter-	4.d\	-num	2d\	-ter-	2dd\T	-ter-	16gg\LL	16bb\LL
.	.	16e\	.	.	.	16ddd\	.	.	.	.	.	.	.	.	.	16aa\	16ccc\
.	.	16f#\	.	.	.	16ddd\	.	.	.	.	.	.	.	.	.	16dd\	16aa\
.	.	16g\JJ	.	.	.	16ddd\JJ	.	.	.	.	.	.	.	.	.	16aa\JJ	16ccc\JJ
8r	.	16a\LL	.	16r	.	8ddd\L	.	.	.	.	.	.	.	.	.	16gg\LL	16bb\LL
.	.	16b\	.	16dd\LL	.	.	.	.	.	.	.	.	.	.	.	16aa\	16ccc\
8D/	.	16cc#X\	.	16dd\	.	8dd\J	.	.	.	8d\	ae-	.	.	.	.	16dd\	16aa\
.	.	16dd\JJ	.	16dd\JJ	.	.	.	.	.	.	.	.	.	.	.	16aa\JJ	16ccc\JJ
!	!	!	!	!	!	!	!	!	!	!	!	!	!	!	!	!	!LO:LB:g=original
=105	=105	=105	=105	=105	=105	=105	=105	=105	=105	=105	=105	=105	=105	=105	=105	=105	=105
!	!	!	!	!LO:TX:a:t=P:problem:mixed beam	!	!	!	!	!	!	!	!	!	!	!	!LO:TX:a:t=P:problem:mixed beam	!
8GG/L	.	8d\L	.	8dd\L	.	16r	.	4D/	-num	8d\	-ter-	4d\	-num	4dd\	-num	8gg\L	8bb\L
.	.	.	.	.	.	16dd\LL	.	.	.	.	.	.	.	.	.	.	.
8D/J	.	8f#\	.	8d/J	.	16dd\	.	.	.	8d\	-num	.	.	.	.	8dd/J	8aa\J
.	.	.	.	.	.	16dd\JJ	.	.	.	.	.	.	.	.	.	.	.
!	!	!	!	!	!	!	!	!	!	!LO:LB:g=original	!	!	!	!	!	!	!
8F#\L	7 #	8f#\	.	8cc#X\L	.	8ee\L	.	8F#\	in	8A#X/	in	8e\	in	8cc#X\	in	4r	4r
8D\J	6 3	8f#\J	.	8dd\J	.	8ff#\J	.	8D/	ae-	8B\	ae-	8f#\	ae-	8dd\	ae-	.	.
=106	=106	=106	=106	=106	=106	=106	=106	=106	=106	=106	=106	=106	=106	=106	=106	=106	=106
!	!	!	!	!LO:TX:a:t=P:problem:mixed beam	!	!LO:TX:a:t=P:problem:mixed beam	!	!	!	!	!	!	!	!	!	!	!
!	!	!	!	!	!	!	!	!	!	!	!	!	!	!	!	!LO:N:vis=00	!LO:N:vis=00
8AA#X/L	7n: #:	8c#X/L	.	8ee\L	.	8gg\L	.	8AA#X/	-ter-	8c#X\	-ter-	8g\	-ter-	8ee\	-ter-	0r	0r
!	!	!	!	!	!	!	!	!	!	!	!	!	!	!LO:TX:a:i:t=Soli	!	!	!
8AA#/J	.	8c#/J	.	8e/J	.	8g/J	.	8AA#/	-num	8c#\	-num	8g\	-num	8ee\	-num	.	.
8r	.	4r	.	4r	.	4r	.	4r	.	4r	.	4r	.	8r	.	.	.
8F#\	X #	.	.	.	.	.	.	.	.	.	.	.	.	8f#/	pro-	.	.
=107	=107	=107	=107	=107	=107	=107	=107	=107	=107	=107	=107	=107	=107	=107	=107	=107	=107
!	!	!LO:N:vis=00	!	!LO:N:vis=00	!	!	!	!	!	!	!	!	!	!	!	!	!
!	!	!	!	!	!	!LO:N:vis=00	!	!	!	!	!	!	!	!	!	!	!
!	!	!	!	!	!	!	!	!	!	!LO:N:vis=00	!	!	!	!	!	!	!
!	!	!	!	!	!	!	!	!	!	!	!	!LO:N:vis=00	!	!	!	!	!
8D/L	X 6	0r	.	0r	.	0r	.	4r	.	0r	.	0r	.	8b\	-pte-	.	.
8BB/J	.	.	.	.	.	.	.	.	.	.	.	.	.	16a#X\	-re-	.	.
.	.	.	.	.	.	.	.	.	.	.	.	.	.	16b\	-a	.	.
!	!	!	!	!	!	!	!	!	!	!	!	!	!	!LO:LB:g=original	!	!	!
!	!	!	!	!	!	!	!	!LO:TX:a:i:t=Solo	!	!	!	!	!	!	!	!	!
8r	.	.	.	.	.	.	.	8r	.	.	.	.	.	8cc#X\	be-	.	.
8F#\	X #	.	.	.	.	.	.	8F#\	pro-	.	.	.	.	(>16b\LL	-ne-	.	.
.	.	.	.	.	.	.	.	.	.	.	.	.	.	16cc#X\JJ)	.	.	.
=108	=108	=108	=108	=108	=108	=108	=108	=108	=108	=108	=108	=108	=108	=108	=108	=108	=108
8B\L	X n	.	.	.	.	.	.	8B\	-pte-	.	.	.	.	8dd\	-di-	.	.
16A#X\L	.	.	.	.	.	.	.	16A#X\	-re-	.	.	.	.	8b\	-xit	.	.
16B\JJ	.	.	.	.	.	.	.	16B\	-a	.	.	.	.	.	.	.	.
!	!	!	!	!	!	!	!	!LO:LB:g=original	!	!	!	!	!	!	!	!	!
8c#X\L	.	.	.	.	.	.	.	8c#X\	be-	.	.	.	.	8r	.	.	.
16B\L	.	.	.	.	.	.	.	16B\LL	-ne-	.	.	.	.	8f#/	te	.	.
16c#\JJ	.	.	.	.	.	.	.	16c#X\JJ	.	.	.	.	.	.	.	.	.
=109	=109	=109	=109	=109	=109	=109	=109	=109	=109	=109	=109	=109	=109	=109	=109	=109	=109
8d\L	x 6	.	.	.	.	.	.	8d\	-di-	.	.	.	.	8b\	De-	.	.
8B\J	.	.	.	.	.	.	.	8B\	-xit	.	.	.	.	(>16a#X\LL	-us	.	.
.	.	.	.	.	.	.	.	.	.	.	.	.	.	16b\JJ)	.	.	.
8r	.	.	.	.	.	.	.	8r	.	.	.	.	.	8cc#X\	in	.	.
8F#\	x #	.	.	.	.	.	.	8F#\	te	.	.	.	.	(>16b\LL	ae-	.	.
.	.	.	.	.	.	.	.	.	.	.	.	.	.	16cc#X\JJ)	.	.	.
!LO:LB:g=original	!	!	!	!	!	!	!	!	!	!	!	!	!	!	!	!	!
=110	=110	=110	=110	=110	=110	=110	=110	=110	=110	=110	=110	=110	=110	=110	=110	=110	=110
!	!	!	!	!	!	!	!	!	!	!	!	!	!	!	!	!LO:N:vis=0	!LO:N:vis=0
8B\L	X n	.	.	.	.	.	.	8B\	De-	.	.	.	.	8dd\	-ter-	1r	1r
16A#X\L	.	.	.	.	.	.	.	(>16A#X\LL	-us	.	.	.	.	8b\	-num	.	.
16B\JJ	.	.	.	.	.	.	.	16B\JJ)	.	.	.	.	.	.	.	.	.
!	!	!	!	!	!	!	!	!LO:SIC:s=c#	!	!	!	!	!	!	!	!	!
8c#X\L	.	.	.	.	.	.	.	8c\	et	.	.	.	.	8ee\	et	.	.
8A#X\J	X 7-	.	.	.	.	.	.	8A#X\	in	.	.	.	.	8gg\	in	.	.
=111	=111	=111	=111	=111	=111	=111	=111	=111	=111	=111	=111	=111	=111	=111	=111	=111	=111
8F#\L	X #	2r	.	2r	.	2r	.	8F#\	sae-	2r	.	2r	.	8a#X\	Sae-	.	.
8D\J	X 6	.	.	.	.	.	.	16E\	-cu-	.	.	.	.	16b\	-cu-	.	.
.	.	.	.	.	.	.	.	16D/	-lum	.	.	.	.	16cc#X\	-lum	.	.
8E\L	6/ 5	.	.	.	.	.	.	8E\	Sae-	.	.	.	.	8.cc#\	Sae-	.	.
8F#\J	X #	.	.	.	.	.	.	8F#\	-cu-	.	.	.	.	.	.	.	.
.	.	.	.	.	.	.	.	.	.	.	.	.	.	16b\	-cu-	.	.
=112	=112	=112-	=112	=112-	=112	=112-	=112	=112	=112	=112-	=112	=112-	=112	=112	=112	=112-	=112-
4.BB/	.	4r	.	4r	.	4r	.	4.BB/	-li	4r	.	4r	.	4.b\	-li.	4r	4r
.	.	8r	.	8r	.	8r	.	.	.	8r	.	8r	.	.	.	8r	8r
!LO:TX:a:t=P:problem:w źródle "Da Capo" zapisane na pięciolinii	!	!LO:TX:a:t=P:problem:w źródle "Da Capo" zapisane na pięciolinii	!	!	!	!	!	!	!	!	!	!	!	!	!	!	!
!	!	!	!	!LO:TX:a:t=P:problem:w źródle "Da Capo" zapisane na pięciolinii	!	!LO:TX:a:t=P:problem:w źródle "Da Capo" zapisane na pięciolinii	!	!LO:TX:a:t=P:problem:w źródle "Da Capo" zapisane na pięciolinii	!	!LO:TX:a:t=P:problem:w źródle "Da Capo" zapisane na pięciolinii	!	!LO:TX:a:t=P:problem:w źródle "Da Capo" zapisane na pięciolinii	!	!LO:TX:a:t=P:problem:w źródle "Da Capo" zapisane na pięciolinii	!	!LO:TX:a:t=P:problem:w źródle "Da Capo" zapisane na pięciolinii	!LO:TX:a:t=P:problem:w źródle "Da Capo" zapisane na pięciolinii
!LO:TX:b:i:t=Da Capo	!	!LO:TX:b:i:t=Da Capo	!	!LO:TX:b:i:t=Da Capo	!	!LO:TX:b:i:t=Da Capo	!	!LO:TX:b:i:t=Da Capo	!	!LO:TX:b:i:t=Da Capo	!	!LO:TX:b:i:t=Da Capo	!	!LO:TX:b:i:t=Da Capo	!	!LO:TX:b:i:t=Da \nCapo	!LO:TX:b:i:t=Da Capo
==	==	==	==	==	==	==	==	==	==	==	==	==	==	==	==	==	==
*-	*-	*-	*-	*-	*-	*-	*-	*-	*-	*-	*-	*-	*-	*-	*-	*-	*-
!!!system-decoration: [g1][g2][g3]
!!!RDF**kern: > = above
!!!RDF**kern: < = below
!!!EED: Antoni Szymański
!!!EST: 2020-11-06
!!!ENC: Marcin Jachim
!!!END: 2020-05-04
